X:1
T:III. Rondo-Burlesque: Allegro assai. Sehr trotzig.
T:Gustav Mahler
T:Symphony No. 9
T:Arranged for two pianos, four-hands by Josef Venantius von Wöss                        
%%score { ( 1 2 3 ) ( 4 5 ) } { ( 6 7 8 ) ( 9 10 ) }
L:1/8
Q:1/4=236
M:4/4
K:C
V:1 treble nm="Primo" snm="Primo"
V:2 treble 
V:3 treble 
V:4 treble nm="Piano"
V:5 treble 
V:6 bass nm="Secondo" snm="Secondo"
V:7 bass 
V:8 bass 
V:9 bass nm="Piano"
V:10 bass 
V:1
!f!"^Allegro assai. Sehr trotzig." B^c | G6 z2 | z4 z2 GA | _E6 z2 | z8 | z8 | z4 z2!ff! ^DE | %7
 A,6 B,C | =DC B,2 z2 CE | ^G2 .B.G =F2 .G.F | E4 z ^F^GA | BAB^G AGA^F | Ed/ z/ d4 cd | %13
 edec dcdB |{/c} a4 z2 Bc | dc B z z2 ce | [cc']4 z2 ^fg | ag ^f z z2 gb | [ee']4 z [gg']^f'e' | %19
 d'b d'2 z ^gab | =c'e' [aa']2 z2 (3e'd'c' | b z a/g/f/e/ d z z2 | z4!f! z2 E z | F4 z2 G z | %24
 A2 B2 z2 G z | A4 z2 B z | c2 g z e z ^c z | a6 g z | f2 d' z .c'.b.ag | f'3 g' d'3 e' | %30
 bc'=d' z ^gab z | =f6 e z | ^c2 d z z2 B z | =cd e z z2 ^f z | c'2 e z z .^f.g.a | %35
 b2 e' z z .e.=f.g | a2 f' z z4 | z6!ff! [e^c'e'] z | [fd'f']2 [gb] z z2 [a=c'] z | %39
 [_bd'][ac'][g=b] z z2 [f'a']2 | [e'^g']2 [^gb] z z2 [^c'e']2 | [d'f'][=c'e'] [_gb] z z2 c'2 | %42
 b2 A z z2 c'2 | (3b/c'/b/-b A z (3b/c'/b/-b A z | z8 | z8 | z8 | z4!f! z2 .B.c | db/ z/ b4 ^ab | %49
 (3=a/b/a/-a ^g z =g z g^f | e4 a4 | c'4 z2 e^f | ^gaga =gaga | ^f4 z2 ^ga | ^abab =abab | %55
 ^g4 z ^e^f=g |{/b} a3 ^g =g3 ^f | =f3 e _e3 d | g3 ^f (3.e2 .d2 .c2 | =g3 =f _e2 ab | %60
 (3.[cc']2 .a2 .[Bb]2 [cc'] z ab | [cc']bab [cc']b[^g^g'][aa'] |[K:treble+8] ^gabc' bag^f | %63
[K:treble] e'^f'^g'f' e'd'c'b |!ff! z4 ^G4 | A^G A z z2 A z | B4 c4 | d6 d z | =f2 _e z d z c z | %69
 _B4 =B4 | d2 c z B z A z | ^G4 z2 E z | F4 ^F4 | G^F G z z2 E2 | ^F z ^G z A z [=FB] z | %75
 d4 z cBA | G^F E z z ecA | _A_G F z z _af_d | =d4 z2 f'=g' |[K:F] =a'b'a'=b' f'g'f'g' | %80
 ^g'a'g'a' z2 =g'f' | e'd'^c'=b c'd'e'=c' | d'4 z a^c'd' | e'4 z ad'f' | a'4 z2[K:treble+8] (3dfa | %85
 [dd']2 [=c=c'][=B=b] [A_b] z [^G^g] z | [cc']2 [_B_b][_A_a] [=G=g] z [^F^f] z | %87
[K:treble]{/a} g4{/=e} =f4 | _e4 z2 d2 | f z _e z d z c z | B4 z2 gb | [_e_e']d' c'2 z2 e' z | %92
 [ff']4 z2 ac' | f'_e' d'2 z2 f' z | [gg']4 z2 dg | b2 =ag f z _e z | g2 f_e d z [^cf]g | %97
 a2{/^g} a z d'2{/^c'} d' z | f'2{/e'} f' z z2 (3d'e'd' | ^c' z{/c'} b z{/b} a z{/a} g z | %100
{/g} f4 z2 d2 | _ed =c z e z g z |{/g} b4 z2 d=e | =f2 ef d z f^g |{/^g} =b4 z2 ^g^a | %105
 =b2 .^a.b .^g2 ^G^A | =B2 .^A.B .^G2 z2 | z8 | z4!mf! .F z .G z | %109
[M:2/4][Q:1/4=118]"^L'iestesso tempo" A2 .G.A | F2 ._E.F | _D z D z | _D2 _E=F | G=A/G/ .F.G | %114
 =E2 =DE | z4 | z2 .c._B | _AB/A/ GA | F2 ._a._g | =e^f/e/ ^de/d/ | ^c2 z .c | e2 ^f2 | ^g2 .^f.e | %123
 ^c2 .=B.A | =B2 .=f.e | =B z B z | =B2 .=f.e |{/e} .=B.^A .B.^c | d2 .A.^c | .e/.e/.e .^f/.f/.f | %130
 .^g/.g/.g .^f.g | a2 =ga | =f2 _ef |{/_d'} _d z d z | _d2 _e=f | =g2 fg | =e2 dc' |{/c'} c z c z | %138
 c2 c'_b | _ab/a/ ga/g/ | f2 _a'_g' | _f'_g'/f'/ _e'f' | _d'2 c'd' |{/[=G_f]} _e'2 _d'b | _a2 =ga | %145
 =a2 ^ga | c'b.=g.=e | g/a/g/a/ f/g/f/g/ | d/e/d/e/ c/d/c/d/ | B2 b>_a | _g2 _d'/_e'/d'/c'/ | %151
 b/c'/b/c'/ _a/b/a/b/ | =g/_a/g/a/ f/g/f/g/ | _e2 _e'>.c' | _a2 ._d'._e' | f'_g'/f'/ ._e'.f' | %156
 _d'2 ^c'/^d'/c'/=b/ | =c'/d'/c'/=b/ b/c'/b/a/ | a2!f! [^g^g'][aa'] | %159
[K:treble+8]{/a} [^f^f']2 [dd']2 | [^fa]2 [=Bb][^c^c'] | [ee'][dd'] .[^c^c'].[=B=b] | %162
{/a} g2[K:treble] .e.^f | .g/.g/.g ._b.a |{/a} g'2 ^d/e/d/e/ | ^f/g/f/g/ _b/a/b/a/ | %166
{/a} ^f'2 e'/f'/e'/f'/ | d'/e'/d'/e'/ ^c'/d'/c'/d'/ | =b/^c'/b/c'/ a/b/a/b/ | %169
 _a/_b/a/b/ _g/a/g/a/ | =f/_g/f/g/ _e/f/e/f/ | ^c z c z | _d2 ._e.f | =g2 .f{/f}.g | %174
 =e2 .=d{/d}.e |{/a} .c z .c z | z2 ._e'._d' | c'_d'/c'/ .b.c' | a2 [aa'][gg'] | %179
 =f'/g'/f'/g'/ e'/f'/e'/f'/ | %180
[K:Cb][M:4/4][K:treble+8][Q:1/4=236]"^Sempre l'istesso tempo"!ff! z2 [ee'] z [dd'][cc'][Bb] z | %181
 [Aa] z e z z2 [Aa][Bb] | [cc'] z a z [dd'] z a z | [ee'] z a z z2 [aa'][=g=g'] | %184
 [=f=f'] z [ee'] z [dd'] z [cc'] z | [Bb]4 z2 e=f | g[Aa]g[Aa] f[Aa]f[Aa] | e4[K:treble] z2 de | %188
 fede f_gab | c'ba=g a z e=f | _g=fef gab=c' | d'^c'b=a b z _ab | _c'ba=g a z ab | c'ba=g a z ab | %194
 c'd'c'b a=gab | c'd'c'b a=gab | =c'=b=a^g ag^f^e | ^f=e^d^c =B=A^G^F |[K:C] z4 ^G4 | %199
 A^GA z z2 [GB] z | [=Gc]4 [_Bd]4 | [_Be]4 z2 [Be] z | g2 f z e z d z | c4 ^c4 | e2 d z ^c z B z | %205
 [D^F^A]4 z2 F z | G4 ^A4 | [^F=B][F^A] [FB] z z2 B z | [_Ac]4 [^A^c]4 ||!mf! z8 |{/Dd} _ba b6 | %211
 x2 a2 x2 g2 | =fe f2 z2 a2 | gafg efde | c_b/ z/ b4 d' z | c'2 ._b.a g!f! z f z | a6 =b=c' | %217
 d'c' b2 z2 c'e' | .^g'2 .=g'2 .^f'2 .=f'2 | e'4 z2 c' z | f'3 e' f'd'f'c' | f' z =b4 c'd' | %222
 (3e'/f'/e'/-e' ^d'e' (3^f'/g'/f'/-f' e'f' | ^g'4- g'e'^f'g' | .a'2 .=g'2 ^f'2 .e'.f' | %225
 .g'2 .=f'2 e'2 .d'.e' | f'2 .e'.d' .c' z .d' z | a8 |!mf! ^c8 | d4 e4 | f4 z2 d2 | %231
 e z f z g z a z | _bc/ z/ c4 e z | f2 .e.f =g2!f! .f.g | a^g a2 z4 | f'e' f'6 | %236
 e'^d' e'2 =d'^c' d'2 | =c'b c'2 z2 e'2 | d'e'c'd' =b=c'ab | gf'/ z/ f'4 [aa'] z | %240
 [gg']2 .f'.e' .d'2 .c'2 | fd'/ z/ d'3 [af'][^ge'][^fd'] | c'b a2 z _e'd'c' | _ba g2 z2 a2 | %244
 ._b.=a .b2 ._g.f .g2 | .d.^c .d2 ._B.=A .B2 | =G8 | _d8 | c4 _B4 | A4 z2 _e2 | .d2 .c2 .=B2 .A2 | %251
 ^G4 z2 ^d z | e4 z2 E z | FE F2 z2 ^d z | e4 z2 ^F z | G^F G2 z2 ^d z | e4- e=f^df | e4- ef^df | %258
!mf! ef^df efdf | ef^df e=fdf | efef efef | efef efef || %262
[M:2/4][Q:1/4=118]"^L'iestesso tempo" e/f/e/f/ d/e/d/e/ | ^c/d/c/d/ B/c/B/c/ | A2 a>.=f | %265
 =c2 .d.e | .g f2 e- | e d2 c | .B.E .B.c | d2 z2 | .^d'.e' a2 | .^g.a ^c2 | a/b/a/b/ ^g/a/g/a/ | %273
 =c2 .^g.a | B2 .^g.^f | B2 e'/=f'/e'/d'/ | =c'/d'/c'/d'/ b/c'/b/c'/ | a/b/a/b/ =a/b/a/b/ | %278
 f2 f'>.d' | _b2 d'/e'/d'/c'/ | _b/c'/b/c'/ a/b/a/b/ | g/a/g/a/ g/a/g/a/ | _e2 _e'>._b | %283
 g2 ._a._b | c'3/2_d'/4c'/4 ._b.c' | ^g2 =b/c'/b/=a/ | ^g/a/g/^f/ f/g/f/e/ | [ce]2 =g/a/g/a/ | %288
 ^B2 =g/a/g/a/ | ^c2 e'/=f'/e'/d'/ | =c'/d'/c'/b/ a/b/a/g/ | =f2 d'/e'/d'/^c'/ | f'2 b/_c'/b/a/ | %293
 f'2 g/a/^f/g/ | e/=f/d/e/ c/d/_B/c/ | z2 .^d.e | A2 A2 | .^G.A D2 | .B.A .=G.F | E2 .A,.^C | %300
 ^F2 .^A,.D | ^G2 .^F.E | D3/2E/4D/4 .=C._B, | A,2 =f/=g/f/g/ | e/f/e/f/ d/e/d/e/ | %305
 c/d/c/d/ g/a/g/f/ | f/g/e/f/ d/e/c/d/ | _B2 a/_b/a/b/ | g/a/g/a/ f/g/f/g/ | %309
 e/f/e/f/ d'/e'/d'/e'/ | c'/d'/_b/c'/ a/b/g/a/ || %311
[M:4/4][Q:1/4=236]"^Sempre l'istesso tempo"!f! z8 | z8 | z8 | z8 | z8 | z8 | z8 | z8 | z8 || %320
[K:Ab] c4 dcBc | d z =G z __b4 | a2 c'a _g2 _bg | _f4- _fa_c'b | _f'3 a f'3 a | %325
 d'__b'/ z/ b'3 _f'e'd' | .=c'.e' .a'2 .=b.e' .=g'2 | _b4- _b_d'c'b | .a._c' ._f'2 .g.b .=d'2 | %329
 E8 | _cB c6 | B=A B2 _A=G A2 | _GF G4 B2 | A z _G2 F2 E2 | E_c/ z/ c4 .e2 | d2 ._c.B .A2 .B2 | %336
 _c4 z4 | z4 z2 d'e' | f'_g'f'g' d'e'd'e' | =e'f'e'f' z2 _e'd' | c'b=a=g abc'a | b4 z f=ab | %342
 c'b =a2 z fbc' | d'4 z2 c'd' | e'd' c'2 z a_f'_g' | a'4 z2 .=a z | b2 .c'.d' e'2 .f'.=g' || %347
[K:D]!pp! =a'/4=a/4a'/4a/4a'/4a/4a'/4a/4 a'/4a/4a'/4a/4a'/4a/4a'/4a/4 a'/4a/4a'/4a/4a'/4a/4a'/4a/4 a'/4a/4a'/4a/4a'/4a/4a'/4a/4 | %348
 a'/4a/4a'/4a/4a'/4a/4a'/4a/4 a'/4a/4a'/4a/4a'/4a/4a'/4a/4 a'/4a/4a'/4a/4a'/4a/4a'/4a/4 a'/4a/4a'/4a/4a'/4a/4a'/4a/4 | %349
 a'/4a/4a'/4a/4a'/4a/4a'/4a/4 a'/4a/4a'/4a/4a'/4a/4a'/4a/4 a'/4a/4a'/4a/4a'/4a/4a'/4a/4 a'/4a/4a'/4a/4a'/4a/4a'/4a/4 | %350
 a'/4a/4a'/4a/4a'/4a/4a'/4a/4 a'/4a/4a'/4a/4a'/4a/4a'/4a/4 a'/4a/4a'/4a/4a'/4a/4a'/4a/4 a'/4a/4a'/4a/4a'/4a/4a'/4a/4 | %351
 a'/4a/4a'/4a/4a'/4a/4a'/4a/4 a'/4a/4a'/4a/4a'/4a/4a'/4a/4 a'/4a/4a'/4a/4a'/4a/4a'/4a/4 a'/4a/4a'/4a/4a'/4a/4a'/4a/4 | %352
 a'/4a/4a'/4a/4a'/4a/4a'/4a/4 a'/4a/4a'/4a/4a'/4a/4a'/4a/4 a'/4a/4a'/4a/4a'/4a/4a'/4a/4 a'/4a/4a'/4a/4a'/4a/4a'/4a/4 | %353
 a'/4a/4a'/4a/4a'/4a/4a'/4a/4 a'/4a/4a'/4a/4a'/4a/4a'/4a/4 a'/4a/4a'/4a/4a'/4a/4a'/4a/4 a'/4a/4a'/4a/4a'/4a/4a'/4a/4 | %354
 z/4 [ac']/4a'/4[ac']/4a'/4[ac']/4a'/4[ac']/4 a'/4[ac']/4a'/4[ac']/4a'/4[ac']/4a'/4[ac']/4 a'/4[ac']/4a'/4[ac']/4a'/4[ac']/4a'/4[ac']/4 a'/4[ac']/4a'/4[ac']/4a'/4[ac']/4a'/4[ac']/4 | %355
!mp! g'2 f'2 e'2 f'2 | b8 | c'4 d'4 | f'6 e'2 | a8 | .g'.g'.g'.g' .g'.g'.a'.g' | %361
 .f'.f'.g'.f' .e'.e'.f'.e' | a6 .b.c' | d'6 .e'.f' | .a'.a'.a'.a' .a'.a'.b'.a' | %365
 .g'.g'.a'.g' .f'.f'.g'.f' | b6 ^ab | c6 Bc | d8- | [d_b]8 | z8 | %371
!pp! (14:32:14A/4B/4c/4d/4e/4^f/4g/4 a/4b/4c'/4d'/4=e'/4f'/4g'/4 | %372
!pp! a'/4a/4a'/4a/4a'/4a/4a'/4a/4 a'/4a/4a'/4a/4a'/4a/4a'/4a/4 a'/4a/4a'/4a/4a'/4a/4a'/4a/4 a'/4a/4a'/4a/4a'/4a/4a'/4a/4 | %373
 a'/4a/4a'/4a/4a'/4a/4a'/4a/4 a'/4a/4a'/4a/4a'/4a/4a'/4a/4 a'/4a/4a'/4a/4a'/4a/4a'/4a/4 a'/4a/4a'/4a/4a'/4a/4a'/4a/4 | %374
 a'/4a/4a'/4a/4a'/4a/4a'/4a/4 a'/4a/4a'/4a/4a'/4a/4a'/4a/4 a'/4a/4a'/4a/4a'/4a/4a'/4a/4 a'/4a/4a'/4a/4a'/4a/4a'/4a/4 | %375
!mp! g'2 f'2 e'2 f'2 |!mp! [a-b]8 | a8 | c'4 b4 | a8 |!mf! f8 | e2 d2 e2 f2 | d'8 | c'8 | f4 ^g4 | %385
 b4 a4 | e'8 | d'8 | c'8 | d'2 c'2 ^b2 c'2 | z8 | %391
!pp! (14:32:14A/4B/4c/4d/4=e/4f/4=g/4 a/4b/4c'/4d'/4e'/4f'/4g'/4 | %392
 a'/4a/4a'/4a/4a'/4a/4a'/4a/4 a'/4a/4a'/4a/4a'/4a/4a'/4a/4 a'/4a/4a'/4a/4a'/4a/4a'/4a/4 a'/4a/4a'/4a/4a'/4a/4a'/4a/4 | %393
 a'/4a/4a'/4a/4a'/4a/4a'/4a/4 a'/4a/4a'/4a/4a'/4a/4a'/4a/4 a'/4a/4a'/4a/4a'/4a/4a'/4a/4 a'/4a/4a'/4a/4a'/4a/4a'/4a/4 | %394
 a'/4a/4a'/4a/4a'/4a/4a'/4a/4 a'/4a/4a'/4a/4a'/4a/4a'/4a/4 a'/4a/4a'/4a/4a'/4a/4a'/4a/4 a'/4a/4a'/4a/4a'/4a/4a'/4a/4 | %395
 a'/4a/4a'/4a/4a'/4a/4a'/4a/4 a'/4a/4a'/4a/4a'/4a/4a'/4a/4 a'/4a/4a'/4a/4a'/4a/4a'/4a/4 a'/4a/4a'/4a/4a'/4a/4a'/4a/4 | %396
!mp! z8 | z8 | d8 | e2 d2 c2 d2 | f8 | e8 | g4 f4 | ^e4 f4 | [a^d']8 | c'8 | b8 | c8 | c'8 | %409
 =b4 a4 | [dd']8- | [dd']8 | d'8 | e'2 d'2 ^c'2 d'2 | [d'e']8 | [c'e']8- | [c'e']8 | b8 | f'8 | %419
 f'8- | f'8 | f'8 |!mp! z8 | z8 | g2 f2 e2 f2 | d4 A4 | a8 | =f8 | a8 | =f8 | a8 | [ea]8 | [g_b]8 | %433
 a2 g2 ^f2 g2 | =f8 | e8 | d8 | c8 | z8 | G2 =F2 E2 ^F2 | E2 D2 ^C2 D2 | %441
!pp! (14:32:14=A/4=B/4c/4d/4e/4^f/4g/4 a/4b/4c'/4d'/4e'/4f'/4g'/4 | %442
!pp! a'/4a/4a'/4a/4a'/4a/4a'/4a/4 a'/4a/4a'/4a/4a'/4a/4a'/4a/4 a'/4a/4a'/4a/4a'/4a/4a'/4a/4 a'/4a/4a'/4a/4a'/4a/4a'/4a/4 | %443
 a'/4a/4a'/4a/4a'/4a/4a'/4a/4 a'/4a/4a'/4a/4a'/4a/4a'/4a/4 a'/4a/4a'/4a/4a'/4a/4a'/4a/4 a'/4a/4a'/4a/4a'/4a/4a'/4a/4 | %444
 a'/4a/4a'/4a/4a'/4a/4a'/4a/4 a'/4a/4a'/4a/4a'/4a/4a'/4a/4 a'/4a/4a'/4a/4a'/4a/4a'/4a/4 a'/4a/4a'/4a/4a'/4a/4a'/4a/4 | %445
 z8 |!mp! [g'a']4 g'2 =f'2 | =g'8 | %448
!pp! =f'/4=f/4f'/4f/4f'/4f/4f'/4f/4 f'/4f/4f'/4f/4f'/4f/4f'/4f/4 f'/4f/4f'/4f/4f'/4f/4f'/4f/4 f'/4f/4f'/4f/4f'/4f/4f'/4f/4 | %449
 =f'/4=f/4f'/4f/4f'/4f/4f'/4f/4 f'/4f/4f'/4f/4f'/4f/4f'/4f/4 f'/4f/4f'/4f/4f'/4f/4f'/4f/4 f'/4f/4f'/4f/4f'/4f/4f'/4f/4 | %450
 =f'/4=f/4f'/4f/4f'/4f/4f'/4f/4 f'/4f/4f'/4f/4f'/4f/4f'/4f/4 f'/4f/4f'/4f/4f'/4f/4f'/4f/4 f'/4f/4f'/4f/4f'/4f/4f'/4f/4 | %451
 =f'/4=f/4f'/4f/4f'/4f/4f'/4f/4 f'/4f/4f'/4f/4f'/4f/4f'/4f/4 f'/4f/4f'/4f/4f'/4f/4f'/4f/4 f'/4f/4f'/4f/4f'/4f/4f'/4f/4 | %452
 =f'/4=f/4f'/4f/4f'/4f/4f'/4f/4 f'/4f/4f'/4f/4f'/4f/4f'/4f/4 f'/4f/4f'/4f/4f'/4f/4f'/4f/4 f'/4f/4f'/4f/4f'/4f/4f'/4f/4 | %453
 =f'/4=f/4f'/4f/4f'/4f/4f'/4f/4 f'/4f/4f'/4f/4f'/4f/4f'/4f/4 f'/4f/4f'/4f/4f'/4f/4f'/4f/4 f'/4f/4f'/4f/4f'/4f/4f'/4f/4 | %454
 =f'/4=f/4f'/4f/4f'/4f/4f'/4f/4 f'/4f/4f'/4f/4f'/4f/4f'/4f/4 f'/4f/4f'/4f/4f'/4f/4f'/4f/4 f'/4f/4f'/4f/4f'/4f/4f'/4f/4 | %455
!mp! z8 | [_e'=f']4 e'2 _d'2 | _e'8 | %458
 d'/4d/4d'/4d/4d'/4d/4d'/4d/4 d'/4d/4d'/4d/4d'/4d/4d'/4d/4 d'/4d/4d'/4d/4d'/4d/4d'/4d/4 d'/4d/4d'/4d/4d'/4d/4d'/4d/4 | %459
 d'/4d/4d'/4d/4d'/4d/4d'/4d/4 d'/4d/4d'/4d/4d'/4d/4d'/4d/4 d'/4d/4d'/4d/4d'/4d/4d'/4d/4 d'/4d/4d'/4d/4d'/4d/4d'/4d/4 | %460
 d'/4d/4d'/4d/4d'/4d/4d'/4d/4 d'/4d/4d'/4d/4d'/4d/4d'/4d/4 d'/4d/4d'/4d/4d'/4d/4d'/4d/4 d'/4d/4d'/4d/4d'/4d/4d'/4d/4 | %461
 d'/4d/4d'/4d/4d'/4d/4d'/4d/4 d'/4d/4d'/4d/4d'/4d/4d'/4d/4 d'/4d/4d'/4d/4d'/4d/4d'/4d/4 d'/4d/4d'/4d/4d'/4d/4d'/4d/4 | %462
 d'/4d/4d'/4d/4d'/4d/4d'/4d/4 d'/4d/4d'/4d/4d'/4d/4d'/4d/4 d'/4d/4d'/4d/4d'/4d/4d'/4d/4 d'/4d/4d'/4d/4d'/4d/4d'/4d/4 | %463
 d'/4d/4d'/4d/4d'/4d/4d'/4d/4 d'/4d/4d'/4d/4d'/4d/4d'/4d/4 d'/4d/4d'/4d/4d'/4d/4d'/4d/4 d'/4d/4d'/4d/4d'/4d/4d'/4d/4 | %464
!mp! d3 ._e =c3 .d | z3 .=c .G._B.d.=e | .=f z .f.g ._e z .e.f | d4 z4 | z8 | %469
!pp! ^f'/4^f/4f'/4f/4f'/4f/4f'/4f/4 f'/4f/4f'/4f/4f'/4f/4f'/4f/4 f'/4f/4f'/4f/4f'/4f/4f'/4f/4 f'/4f/4f'/4f/4f'/4f/4f'/4f/4 | %470
 =d'/4f'/4d'/4f'/4d'/4f'/4d'/4f'/4 d'/4f'/4d'/4f'/4d'/4f'/4d'/4f'/4 d'/4f'/4d'/4f'/4d'/4f'/4d'/4f'/4 d'/4f'/4d'/4f'/4d'/4f'/4d'/4f'/4 | %471
 [bd']/4f'/4[bd']/4f'/4[bd']/4f'/4[bd']/4f'/4 [bd']/4f'/4[bd']/4f'/4[bd']/4f'/4[bd']/4f'/4 [bd']/4f'/4[bd']/4f'/4[bd']/4f'/4[bd']/4f'/4 [bd']/4f'/4[bd']/4f'/4[bd']/4f'/4[bd']/4f'/4 | %472
 [bd']/4f'/4[bd']/4f'/4[bd']/4f'/4[bd']/4f'/4 [bd']/4f'/4[bd']/4f'/4[bd']/4f'/4[bd']/4f'/4 z4 | %473
!mp! [=c'e'g']8- | [c'e'g']7 z | [d'f']4 [be']4 | d'4 z2 [bd'f'] z | .e'2 .d'2 .^c'2 .b2 | %478
 ^a^a'/ z/ a'4 =a'2 | g'2 .=f'.e' .d' z .e' z | %480
!pp!{/^f} ^f'/4^f/4f'/4f/4f'/4f/4f'/4f/4 f'/4f/4f'/4f/4f'/4f/4f'/4f/4 f'/4f/4f'/4f/4f'/4f/4f'/4f/4 f'/4f/4f'/4f/4f'/4f/4f'/4f/4 | %481
 ^f'/4^f/4f'/4f/4f'/4f/4f'/4f/4 f'/4f/4f'/4f/4f'/4f/4f'/4f/4 f'/4f/4f'/4f/4f'/4f/4f'/4f/4 f'/4f/4f'/4f/4f'/4f/4f'/4f/4 | %482
 ^f'/4^f/4f'/4f/4f'/4f/4f'/4f/4 f'/4f/4f'/4f/4f'/4f/4f'/4f/4 f'/4f/4f'/4f/4f'/4f/4f'/4f/4 f'/4f/4f'/4f/4f'/4f/4f'/4f/4 | %483
 ^f'/4^f/4f'/4f/4f'/4f/4f'/4f/4 f'/4f/4f'/4f/4f'/4f/4f'/4f/4 f'/4f/4f'/4f/4f'/4f/4f'/4f/4 f'/4f/4f'/4f/4f'/4f/4f'/4f/4 | %484
!mp! ^d8 | e2 ^d2 ^c2 d2 | [^df]8 | =d2 =c2 B2 c2 | B8 | ^c2 B2 ^A2 B2 | [=c^d]8 | ^c8 | e4 ^d4 | %493
 ^^c4 ^d4 | f2 e2 ^d2 e2 | =c4 G4 | ^a8- | a8 | G8- | G8 | z8 | z8 | z8 | z8 | G8- | G8 | %506
!mf! [^G^c]4 [E=G]2 z2 | [^G^c]4 [E=G]2 z2 | [ce]4 =G2 z2 | [ce]4 A4 | z4 .[Ac] z .[^GB]A | %511
 _B z _A z =G4 | =F z .=E.F _A4 | =F z .E.F [_Ad]4 | =F z .E.F .=f2 ._e2 | .=d2 .=c2 =B4 | %516
 ._e2 .d2 =c4 | ._f2 ._e2 _d4 | =f_gfg _d_ede | _f_gfg z2 _e_d | =c_B=A=G ABcA | =G^F=E^D EFGE | %522
[K:C][K:treble+8]!f! z2{/=a} =a' z [gg'][ff'] [ee'] z | [dd'] z [cb] z z2 cd | ec'/ z/ [cc']4 bc' | %525
 a z ga f z ef | db/ z/ [Bb]4 .[Aa]2 | (3^gag ^f z f z ed | ceac' (5:4:5e'/f'/e'/f'/e'/ d'c' | %529
 bagf ed[K:treble] bc' | d'c' b2 z2 [ec']d' | a3 a/c'/ e'3 e'/^f'/ | [gg']^f'e'g' [^ff']e'd'f' | %533
 [ee']4 z2 (3e'^f'^g' |{/a} a'^g'a' z (3a'/b'/a'/g' a' z |{/a'b'} [c'c'']3 b' a'=g'=f'e' | %536
 (5:4:5^f'/g'/f'/g'/f'/ e'f' ^g'2 f'g' | %537
{/ab} (9:8:9c'/d'/c'/d'/c'/d'/c'/d'/c'/{/ab} (9:8:9c'/d'/c'/d'/c'/d'/c'/d'/c'/ | %538
{/ab} c'^f'/ z/ f'4 f'^g' |{/^g'} c'bab c'bab | [^c^c']bab c'bab | ^c'bab c'bab | z8 | %543
 z4!ff! z2 A z | A4 B4 | c4 z2 ^c2 | e2 de ^c z Bc | A4 ^A4 | ^c2 ^AB cB.A.=G | ^F4 z2 F z | %550
 G4 ^G4 |{/=F} A^G A2 z2 ^A2 | B z .^c2 .d2 .e2 | ^f6 [^a^a'] z | [^c'^c'']2 [bb'] z ^a' z ^g' z | %555
 ^f'4 ^^f'4 | =a'2 =g' z ^f' z =e' z | =d'4 z4 | z4 ^d4 | =e^de z z2 e z | =f4 [f^g] z e2 | %561
 f z z2 z2 =g[e^g] | [fa]3 .[^ce] [df]3 .^d | e3 z z2 z [^d^f] | c'2 [gg'] z [ee'] z [^c^c']2 | %565
 =a'4 z2 [gg']2 | f'4 z2 ^f'2 | g'3 =f' e'3 ^d' | %568
 .[ac'].[^gd'].[ae'].[^fb] .[=gc'].[^d^g].[ea].[^ce] | =f=ga z z2 b z | f'2 a z z2 b z | %571
 =c'd'e' z z2 ^f' z | [c'c'']2 e' z z g'^f'e' | d'b d2 z =f'e'd' | c'e' [aa']2 gf[ea][fb] | %575
 d'c'bc' ba^ga | z2 c' z b2 ^d z | z2 ^f z edc z | z2{/d'} [^fc'][^eb] [fc']4 | %579
 z2 [e=gb][d^f] [cea]=g^f z | z2 g' z ^f'2 a z |{/d'} [=fac'][^gb]=g'^f' c' z{/d'} [ac'g'][^gbf'] | %582
 [ac'] z{/c'} [^gb][^fa] [^dgb] z{/b} [=fa]^g | [fa] z{/a} ^g^^f [eg] z =f'=g' | %584
[K:treble+8]!mp! a/4b/4a/4b/4a/4b/4a/4b/4 a/4b/4a/4b/4a/4b/4a/4b/4 d'/4e'/4d'/4e'/4d'/4e'/4d'/4e'/4 d'/4e'/4d'/4e'/4d'/4e'/4d'/4e'/4 | %585
 f'/4g'/4f'/4g'/4f'/4g'/4f'/4g'/4 f'/4g'/4f'/4g'/4f'/4g'/4f'/4g'/4!ff! z2 (3d'e'd' | %586
 .^c'2 ._b2 .a2 .g2 | f4[K:treble] z2 ef | =gf e2 z2 fa | d'4 z2 ^ga | _bc'bc' d'e'd'e' | %591
 c'd'c'd' _e'f'e'f' |[K:treble+8]{/a'g'^f'} g'2 z (3g'/=f'/=e'/ f'2 z (3f'/_e'/d'/ | _e'4 z2 d'e' | %594
 f'_e'd'c' =bc'd'b |{/a} g4[K:treble] z2 G z | ._A.G .F2 .F2 .A2 | c4 z2 ^F2 | _B=AG^F G z .B2 | %599
 _d4 z2 d_e | f4{/=e} =d4 |!mf!{/^c} F/4G/4F/4G/4F/4G/4F/4G/4 F/4G/4F/4G/4F/4G/4F/4G/4!ff! z2 de | %602
{/=g} f z .e.f d z .e.f | =B=c^GA z2 [aa'] z | [_b_b']3 .[c'c''] [aa']3 .[bb'] | %605
 [gg']3 .a'!mf! _b/4c'/4b/4c'/4b/4c'/4b/4c'/4 b/4c'/4b/4c'/4b/4c'/4b/4c'/4 | %606
!ff! z2 z .a'!mf! _b/4c'/4b/4c'/4b/4c'/4b/4c'/4 b/4c'/4b/4c'/4b/4c'/4b/4c'/4 |!ff! z2 a_b f'4 | %608
 x4 _b'4 | z2 =b=c' d z ^ab | B z =c'_d' d z ^ga | d' z ^c'd' f' z e'f' | %612
[K:treble+8] [_B_b] z a=b [dd'] z ^c'd' |[K:treble] f'e'd'^c' [_af']e'd'c' | %614
 [gf']e'd'^c' [^gf']e'd'c' |[K:treble+8] f'g'f'g' z4 | ^g'a'g'a' z4 |[K:treble] A^GA z z4 | %618
"^Più stretto" [=GA]^GA z z E^F^G |{/B} .A.^G .A2{/d} .[Ac].[GB] .[Ac]2 | %620
{/f} .[Ae].[^G^d] A z z Ace |{/c} f3 e{/_B} f3 _e |{/A} d3 ^c d_Bdf | %623
!f! (5:4:5_b'/c''/b'/c''/b'/!ff! a'b'!f! (5:4:5g'/a'/g'/a'/g'/!ff! ^f'g' | %624
!f! (5:4:5_e'/f'/e'/f'/e'/!ff! d'e'!f! (5:4:5^c'/d'/c'/d'/c'/!ff! ^bc' | z8 | z8 | z8 | z8 | z8 | %630
 z8 | z8 | e4 z Ace | a^gaf =g^fg=e | ^fd'/ z/ d'4 _ba | g_bg' z g' z g' z |{/g'} g6 z2 | %637
 .=E.G .c2 .=B.^d .a2 | .f._a ._d'2 .=a.^c' .g'2 | =f8 | ^g6!fff![Q:1/4=258]"^258" z2 | %641
 z4 z2{/e'} f' z | (5:4:5a/b/a/b/a/ ^g z g z{/e'} f' z | (5:4:5a/b/a/b/a/ ^g z g z z2 | %644
 z4 z2 (3e'^f'^g' | a'2 e' z e' z e' z | (5:4:5=f'/g'/f'/g'/f'/ e' z e' z e' z | %647
{/d'} [^f'a']4 [e'^g'][f'a'][e'g'][d'f'] | z4{/e} ^f4 | e2 e2{/e} [d=f]4 | %650
{/d'} [^f'a']4 [e'^g'][f'a'][e'g'][d'f'] | d' z d'4 ^g z |{/b} a^gab a=g=fa |{/a} g^fga g=feg | %654
{/[DA]} [fd'] z [fd']4[Q:1/4=260]"^260" [d^g] z |{/b'a'^g'} [e'a']4{/=g'f'e'} [d'f']4 | %656
{/f'e'd'} e'4{/e'd'c'} d'4 |[Q:1/4=262]"^262" z8 |[K:treble+8] [aa']4 [ff']4 | e'd'f'e' d'c'e'd' | %660
 c'bd'c' _bac'=b |[Q:1/4=265]"^265" a^g .a2 z4 | a^g .a2 z4 |{/_b} a^g .a2{/b} ag .a2 | %664
{/_b} a^g .a2{/b} ag .a2 |[K:treble] [_df]6[Q:1/4=236]"^236" z2 | [f^g]6 z2 | %667
 [ac'e'a'][^gc'e'^g'] [ac'e'a'] z z4 |] %668
V:2
 x2 | x8 | x8 | x8 | x8 | x8 | x8 | x8 | x8 | x8 | x8 | x8 | x8 | x8 | x8 | x8 | x8 | x8 | x8 | %19
 x8 | x8 | x8 | x8 | x8 | x8 | x8 | x8 | x8 | x8 | x8 | x8 | x8 | x8 | x8 | x8 | x8 | x8 | x8 | %38
 x8 | x8 | x8 | x8 | x8 | x8 | x8 | x8 | x8 | x8 | x8 | x8 | x8 | x8 | x8 | x8 | x8 | x8 | x8 | %57
 x8 | x8 | x8 | x8 | x8 |[K:treble+8] x8 |[K:treble] x8 | x8 | x8 | x8 | x8 | x8 | x8 | x8 | x8 | %72
 x8 | x8 | x8 | x8 | x8 | x8 | x8 |[K:F] x8 | x8 | x8 | x8 | x8 | x6[K:treble+8] x2 | x8 | x8 | %87
[K:treble] x8 | x8 | x8 | x8 | x8 | x8 | x8 | x8 | x8 | x8 | x8 | x8 | x8 | x8 | x8 | x8 | x8 | %104
 x8 | x8 | x8 | x8 | x8 |[M:2/4] x4 | x4 | x4 | x4 | x4 | x4 | x4 | x4 | x4 | x4 | x4 | x4 | x4 | %122
 x4 | x4 | x4 | x4 | x4 | x4 | x4 | x4 | x4 | x4 | x4 | x4 | x4 | x4 | x4 | x4 | x4 | z f z c | %140
 x4 | x4 | x4 | x4 | x4 | x4 | x2 b/c'/b/a/ | x4 | x4 | x4 | x4 | x4 | x4 | x4 | x4 | x4 | x4 | %157
 x4 | x4 |[K:treble+8] x4 | x4 | x4 | x2[K:treble] x2 | x4 | x4 | x4 | x4 | x4 | x4 | x4 | x4 | %171
 x4 | x4 | x4 | x4 | x4 | x4 | x4 | x4 | x4 |[K:Cb][M:4/4][K:treble+8] x8 | x8 | x8 | x8 | x8 | %185
 x8 | x8 | x4[K:treble] x4 | x8 | x8 | x8 | x8 | x8 | x8 | x8 | x8 | x8 | x8 |[K:C] x8 | x8 | x8 | %201
 x8 | A4 _B4 | F4 G2 A z | [^F^A]4 [DG] z [DG] z | x8 | x8 | x8 | x8 || x8 | x8 | a^gef =g^f^de | %212
 x6 d z | x8 | x8 | x6 ^d'e' | x8 | x8 | x8 | x8 | x8 | x8 | x8 | x8 | x2 c'4 _ba | x2 b4 ag | x8 | %227
 x8 | x8 | x8 | x8 | x8 | x8 | x8 | x8 | x8 | x8 | x8 | x8 | x8 | x2 c'3 bag | b4 x4 | e2 de z4 | %243
 B4 z cde | x8 | x8 | x8 | x8 | x8 | x8 | x8 | x8 | x8 | x8 | x8 | x8 | x8 | x8 | x8 | x8 | x8 | %261
 x8 ||[M:2/4] x4 | x4 | x4 | x4 | x4 | x4 | x4 | x4 | x4 | x4 | x4 | x4 | x4 | x4 | x4 | x4 | x4 | %279
 x4 | x4 | x4 | x4 | x4 | x4 | x4 | e2 z2 | x4 | x2 ^B2 | x4 | x4 | x4 | x4 | x4 | x4 | x4 | x4 | %297
 x4 | x4 | x4 | x4 | x4 | x4 | x4 | x4 | x4 | x4 | x4 | x4 | x4 | x4 ||[M:4/4] x8 | x8 | x8 | x8 | %315
 x8 | x8 | x8 | x8 | x8 ||[K:Ab] x8 | x8 | x8 | x8 | a z z2 z4 | d'2 d'3 x3 | x8 | x8 | x8 | x8 | %330
 x8 | x8 | x8 | x8 | x8 | x8 | x8 | x8 | x8 | x8 | x8 | x8 | x8 | x8 | x8 | x8 | x8 ||[K:D] x8 | %348
 x8 | x8 | x8 | x8 | x8 | x8 | f'8 | x8 | x8 | x8 | x8 | x8 | x8 | x8 | x8 | x8 | x8 | x8 | x8 | %367
 x8 | x8 | x8 | x8 | x511/64 | x8 | x8 | a'8 | b8 | x8 | c'4 =d'4 | f'6 e'2 | a4 g4 | x8 | x8 | %382
 x8 | x8 | x8 | x8 | x8 | x8 | x8 | x8 | a'8- | a'8 | x8 | x8 | x8 | x8 | x8 | x8 | x8 | x8 | x8 | %401
 x8 | x8 | x8 | x8 | =g4 f4 | ^e4 f4 | a4 g4 | f4 e4 | e8 | g4 =f4 | e4 =f4 | c'4 _b4 | a4 b4 | %414
 x8 | x8 | x8 | =e'7 f' | ^a4 b4 | d'8- | d'4 c'4 | b4 =a4 | x8 | x8 | x8 | x8 | g2 f2 e2 f2 | %427
 d4 A4 | g2 =f2 e2 f2 | d4 =A4 | g2 =f2 e2 f2 | x8 | x8 | =f4 e4 | d4 c4 | ^B4 c4 | %436
 _B2 A2 ^G2 A2- | A2 =G2 ^F2 G2 | x8 | x8 | x8 | x511/64 | x8 | x8 | x8 | x8 | x4 _b'a'^g'a' | %447
 _e'2 ^f'd' ^c'2 z2 | x8 | x8 | x8 | x8 | x8 | x8 | x8 | x8 | x4 _g'=f'=e'f' | %457
 _c'2 =d'_b =a2!pp! z2 | x8 | x8 | x8 | x8 | x8 | x8 | x8 | x8 | x8 | x8 | x8 | x8 | x8 | x8 | x8 | %473
 x8 | x8 | x8 | x8 | =c'4 z4 | x8 | x8 | x8 | x8 | x8 | x8 | x8 | x8 | x8 | x8 | x8 | x8 | x8 | %491
 x8 | x8 | x8 |{/=G} =c8 | =c8 | x8 | x8 | x8 | x8 | x8 | x8 | x8 | x8 | x8 | F2 E2 ^D2 E2 | x8 | %507
 x8 | x8 | x4 A2 z2 | x8 | =F8 | x8 | x8 | x8 | x8 | x8 | x4 z2 _d_e | =f8 | x8 | _a8 | %521
 ^c z B z ^A4 |[K:C][K:treble+8] x8 | x8 | x8 | x8 | x8 | x8 | x8 | x6[K:treble] x2 | x8 | %531
 (3e'2 f'2 d'2 z4 | x8 | x8 | x8 | x8 | x8 | x321/40 | x2 ab c'2 ab | x8 | x8 | x8 | x8 | x8 | x8 | %545
 x8 | x8 | x8 | x8 | x8 | x8 | x8 | x8 | x8 | x8 | x8 | x8 | x8 | x8 | x8 | x8 | x8 | %562
 a2 b z z2 =g2 | a4 z2 .b z | [eg]3 .[^gb] [ac']3 .[^f^a] | .b.^c' .b2 z4 | %566
 .a.^g.a.d' .c'.=b.[ac'].[gb] | .[c'e'].^d'.e'.b .c'.b.c'.^g | x8 | f4 x4 | x8 | a4 x4 | x8 | x8 | %574
 x8 | x8 | z2{/b} [fa][e^g] [fa]4 | z2 [ce][B=d] [Ac] z z2 | z2 e' z d'2 =e z | x8 | %580
 x2{/d'} [ac'][^gb] [ac']4 | x2 [ac']4 z2 | x8 | x8 |[K:treble+8] x8 | x8 | x8 | x4[K:treble] x4 | %588
 x8 | x8 | x8 | x8 |[K:treble+8] x8 | x8 | x8 | x4[K:treble] x4 | x8 | x8 | x8 | x8 | x8 | x8 | %602
 x8 | x8 | x8 | x8 | x8 | x8 | z2 a_b z2 ^c'd' | x8 | x8 | x8 |[K:treble+8] x8 |[K:treble] x8 | %614
 x8 |[K:treble+8] x8 | x8 |[K:treble] x8 | x8 | x8 | x2 e3 x3 | x8 | x8 | x8 | x8 | x8 | x8 | x8 | %628
 x8 | x8 | x8 | x8 | x8 | x8 | =f3 x5 | g4 z4 | x8 | x8 | x8 | x8 | x8 | x8 | x8 | x8 | x8 | x8 | %646
 x8 | x8 | x8 | x8 | x8 | x8 | x8 | x8 | x8 | x8 | x8 | x8 |[K:treble+8] x8 | x8 | x8 | x8 | x8 | %663
 x8 | x8 |[K:treble] x8 | x8 | x8 |] %668
V:3
 x2 | x8 | x8 | x8 | x8 | x8 | x8 | x8 | x8 | x8 | x8 | x8 | x8 | x8 | x8 | x8 | x8 | x8 | x8 | %19
 x8 | x8 | x8 | x8 | x8 | x8 | x8 | x8 | x8 | x8 | x8 | x8 | x8 | x8 | x8 | x8 | x8 | x8 | x8 | %38
 x8 | x8 | x8 | x8 | x8 | x8 | x8 | x8 | x8 | x8 | x8 | x8 | x8 | x8 | x8 | x8 | x8 | x8 | x8 | %57
 x8 | x8 | x8 | x8 | x8 |[K:treble+8] x8 |[K:treble] x8 | x8 | x8 | x8 | x8 | x8 | x8 | x8 | x8 | %72
 x8 | x8 | x8 | x8 | x8 | x8 | x8 |[K:F] x8 | x8 | x8 | x8 | x8 | x6[K:treble+8] x2 | x8 | x8 | %87
[K:treble] x8 | x8 | x8 | x8 | x8 | x8 | x8 | x8 | x8 | x8 | x8 | x8 | x8 | x8 | x8 | x8 | x8 | %104
 x8 | x8 | x8 | x8 | x8 |[M:2/4] x4 | x4 | x4 | x4 | x4 | x4 | x4 | x4 | x4 | x4 | x4 | x4 | x4 | %122
 x4 | x4 | x4 | x4 | x4 | x4 | x4 | x4 | x4 | x4 | x4 | x4 | x4 | x4 | x4 | x4 | x4 | x4 | x4 | %141
 x4 | x4 | x4 | x4 | x4 | x4 | x4 | x4 | x4 | x4 | x4 | x4 | x4 | x4 | x4 | x4 | x4 | x4 | %159
[K:treble+8] x4 | x4 | x4 | x2[K:treble] x2 | x4 | x4 | x4 | x4 | x4 | x4 | x4 | x4 | x4 | x4 | %173
 x4 | x4 | x4 | x4 | x4 | x4 | x4 |[K:Cb][M:4/4][K:treble+8] x8 | x8 | x8 | x8 | x8 | x8 | x8 | %187
 x4[K:treble] x4 | x8 | x8 | x8 | x8 | x8 | x8 | x8 | x8 | x8 | x8 |[K:C] x8 | x8 | x8 | x8 | x8 | %203
 x8 | x8 | x8 | x8 | x8 | x8 || x8 | x8 | x8 | x8 | x8 | x8 | x8 | x8 | x8 | x8 | x8 | x8 | x8 | %222
 x8 | x8 | x8 | x8 | x8 | x8 | x8 | x8 | x8 | x8 | x8 | x8 | x8 | x8 | x8 | x8 | x8 | x8 | x8 | %241
 x8 | x8 | x8 | x8 | x8 | x8 | x8 | x8 | x8 | x8 | x8 | x8 | x8 | x8 | x8 | x8 | x8 | x8 | x8 | %260
 x8 | x8 ||[M:2/4] x4 | x4 | x4 | x4 | x4 | x4 | x4 | x4 | x4 | x4 | x4 | x4 | x4 | x4 | x4 | x4 | %278
 x4 | x4 | x4 | x4 | x4 | x4 | x4 | x4 | x4 | x4 | x4 | x4 | x4 | x4 | x4 | x4 | x4 | x4 | x4 | %297
 x4 | x4 | x4 | x4 | x4 | x4 | x4 | x4 | x4 | x4 | x4 | x4 | x4 | x4 ||[M:4/4] x8 | x8 | x8 | x8 | %315
 x8 | x8 | x8 | x8 | x8 ||[K:Ab] x8 | x8 | x8 | x8 | x8 | x8 | x8 | x8 | x8 | x8 | x8 | x8 | x8 | %333
 x8 | x8 | x8 | x8 | x8 | x8 | x8 | x8 | x8 | x8 | x8 | x8 | x8 | x8 ||[K:D] x8 | x8 | x8 | x8 | %351
 x8 | x8 | x8 | x8 | x8 | x8 | x8 | x8 | x8 | x8 | x8 | x8 | x8 | x8 | x8 | x8 | x8 | x8 | x8 | %370
 x8 | x511/64 | x8 | x8 | x8 | x8 | x8 | x8 | x8 | x8 | x8 | x8 | x8 | x8 | x8 | x8 | x8 | x8 | %388
 x8 | x8 | x8 | x8 | x8 | x8 | x8 | x8 | x8 | x8 | x8 | x8 | x8 | x8 | x8 | x8 | x8 | x8 | x8 | %407
 x8 | x8 | x8 | x8 | x8 | x8 | x8 | x8 | x8 | x8 | x8 | x8 | x8 | x8 | x8 | x8 | x8 | x8 | x8 | %426
 x8 | x8 | x8 | x8 | x8 | x8 | x8 | x8 | x8 | x8 | x8 | x8 | x8 | x8 | x8 | x511/64 | x8 | x8 | %444
 x8 | x8 | x8 | x8 | x8 | x8 | x8 | x8 | x8 | x8 | x8 | x8 | x8 | x8 | x8 | x8 | x8 | x8 | x8 | %463
 x8 | x8 | x8 | x8 | x8 | x8 | x8 | x8 | x8 | x8 | x8 | x8 | x8 | x8 | x8 | x8 | x8 | x8 | x8 | %482
 x8 | x8 | x8 | x8 | x8 | x8 | x8 | x8 | x8 | x8 | x8 | x8 | x8 | x8 | x8 | x8 | x8 | x8 | x8 | %501
 x8 | x8 | x8 | x8 | x8 | x8 | x8 | x8 | x8 | x8 | x8 | x8 | x8 | x8 | x8 | x8 | x8 | x8 | x8 | %520
 x4 =e z ^d z | =B6 x2 |[K:C][K:treble+8] x8 | x8 | x8 | x8 | x8 | x8 | x8 | x6[K:treble] x2 | x8 | %531
 x8 | x8 | x8 | x8 | x8 | x8 | x321/40 | x8 | x8 | x8 | x8 | x8 | x8 | x8 | x8 | x8 | x8 | x8 | %549
 x8 | x8 | x8 | x8 | x8 | x8 | x8 | x8 | x8 | x8 | x8 | x8 | x8 | x8 | x8 | x8 | x8 | x8 | x8 | %568
 x8 | x8 | x8 | x8 | x8 | x8 | x8 | x8 | x8 | x8 | x8 | x8 | x8 | x8 | x8 | x8 |[K:treble+8] x8 | %585
 x8 | x8 | x4[K:treble] x4 | x8 | x8 | x8 | x8 |[K:treble+8] x8 | x8 | x8 | x4[K:treble] x4 | x8 | %597
 x8 | x8 | x8 | x8 | x8 | x8 | x8 | x8 | x8 | x8 | x8 | x8 | x8 | x8 | x8 |[K:treble+8] x8 | %613
[K:treble] x8 | x8 |[K:treble+8] x8 | x8 |[K:treble] x8 | x8 | x8 | x8 | x8 | x8 | x8 | x8 | x8 | %626
 x8 | x8 | x8 | x8 | x8 | x8 | x8 | x8 | x8 | x8 | x8 | x8 | x8 | x8 | x8 | x8 | x8 | x8 | x8 | %645
 x8 | x8 | x8 | x8 | x8 | x8 | x8 | x8 | x8 | x8 | x8 | x8 | x8 |[K:treble+8] x8 | x8 | x8 | x8 | %662
 x8 | x8 | x8 |[K:treble] x8 | x8 | x8 |] %668
V:4
!f! z2 | z4!ff! z2 ^C^D | E^D ^C2 z4 | z4 z2 A, z | .B,4 .=C4 | z4 z2 E z | [_D=F]4 [=DF^G] z z2 | %7
 z6[K:bass] =G,A, | ^D,4 z4 |[K:treble] E4 A4 | c4 z2 B z | ^G z =F z E z ^D z | =D4 z4 | z8 | %14
 z4 z2 =GA | B z z c GAGA | EFEF z2 cd | e^fef dede | ^ABAB z2 .^f.[eg] | [B^f]4 e z .[de].=f | %20
 =c z B z A z de | B z cd F z GA | z4!f! z4 | z2 ^C z D4 | z2 .F.E .F z ^D z | z2 ^D z E4 | %26
 z2 .e.d .c.B.A.G | z2 ^AB .f z .e.d | ^c z ag ^f z B z | z ^d'e'b c'^ga^f | z ^deB z2 =G2 | %31
 =FG A z z2 B z | f2 A z B z ^F2 | A6 [E^G] z | [^D^F]2 [E=G] z E z E z | B4 A z G z | %36
 F z E z D z de | f z ef d z =cd | G4 z4 | z4!ff! z2 [fa]2 | [e^g]2 [^GB] z z4 | %41
 z4 z2 [^d^f][e=g] | z2 g2 f2 A z | A z [^dg][e^f] A z [dg][ef] | z8 | z8 | z8 | %47
!f! z4 (3z2 ^F2 ^G2 | (3A2 B2 ^G2 (3A2 ^F2 =G2 | Ed/ z/ d2 (3z2 c2 d2 | (3^d2 e2 ^c2 (3=d2 B2 =c2 | %51
{/A} [ca]4 (3z2 .B2 .c2 | (3.d2 .c2 .B2 (3z2 .c2 .d2 | (3.e2 .=f2 .^d2 (3e2 .c2 .=d2 | %54
 (3.e2 .d2 .^c2 (3z2 .d2 .e2 | (3.^f2 .=g2 .e2 (3f2 .[Aa]2 .[Bb]2 | %56
 (3.[cc']2 .[Bb]2 .[Aa]2 (3z2 .A2 .B2 | (3.c2 .B2 .A2 (3z2 .[Aa]2 .[Bb]2 | %58
 (3.[cc']2 .[dd']2 [Bb]2 (3.[cc']2 .A2 .B2 | (3.c2 .d2 B2 (3.c2 .d2 .c2 | %60
 (3^f/g/f/^e f z (3=f/g/f/=e f z | (3e/f/e/^d e z (3^d/e/d/^^c d z | ^gabc' bag^f | e^f^gf edcB | %64
!ff! z8 | z8 | z8 |{/^F} _B2 [Fc] z [G=B] z [_AB] z |{/_E} [G_B]4 [E_A] z [EA] z | [_EG]4 [FG]4 | %70
{/G,} [=EG]4 [CF] z [CF] z | [CE]4 z2 B, z | C4 C2 C z | D4 E4 | z E^F z z2 D2 | .F2 .G2 .A2 z2 | %76
 c4 z2 G2 | z2 ._B2 ._c2 ._d2 | _c_B_A_G F_E_D_C |[K:F] z4 z2 ^ga | z4 z2 ef | gf e2 z2 fa | %82
 d4 z A^cd | e4 z2 fa | ^c'd'c'd' _b=c'bc' | ^gaga z2 [=Bf] z | [_A_e]fef c[_Bd][Ac]d | %87
 BcBc z2 ^cd | G4 z2 AB | cB A2 z2 Bd | _e2 ge d2 [Gf][Bd] | z d c2 z2 f_g | =A4 z4 | %93
 f_e d2 z2 [f_a]b | d4 z4 | d z cd G z z2 | B z _AB _E z z2 | z4 z2 ^GA | D4 z2 EF | GF E2 z2 A=B | %100
 ^c2 dc =B2 cB | _B,4 z2 d_e | ^F4 z2{/A} B z | (3d/e/d/^c d2 (3=B/c/B/^A B2 | F4 z4 | %105
!mf! .[=G=Bd].[GBd].[GBd].[GBd] [GBd] z z2 | z8 |[K:bass] [_D,,F,,_A,,]8- | [D,,F,,A,,]2 z2 z4 | %109
[M:2/4][K:treble] .F.C .C.C | ._D._A, .A,.A, | _F, z F, z | z2 .C._D | =B,4 | z2 z .=B, | %115
{/c} C z C z | C2 .=A,._B, | C2{/C_D} .C.B, | _A,2 z2 | z4 | z2 A^G | ^F2 E2 | ^C2 ^c=B | %123
{/A} .^G.A/.G/ .=F.G/.F/ | D4 |{/=G} .F.E .F.F/.E/ | .F/.E/.F/ z/ .D.^C | =G>=A ^F>G | %128
 (3=F/G/F/-F .E z | _B>A A2 | ^c2 =B/c/B/c/ |{/A} .=c/.d/.c/.d/ =F2 | ._A/._B/.A/.B/ _D2 | %133
 ._F/._G/.F .F/.G/.F | ._F/._G/.F/.G/ ._D/._E/.D/.E/ | =B,2 _A2 | .G/.=A/.G .F/.G/.F | %137
 .=E/.F/.E/ z/ .=D/.E/.D/ z/ | z2 D/E/D/E/ | F/G/F/G/ _A/B/A/B/ | .c/._d/.c z .__B | %141
 ._A/.__B/.A ._G/.A/.G | ._F/._G/.F c_d | z2 =d_e | _g2 _f_d | c2 =Bc |{/c} _e_d .B z | A2 GA | %148
 F2 _E.F | _D z D z | _D2 _EF | =G/=A/G FG | _E/F/E _DE | C z C z | C2 c/_d/c/B/ | [_df]2 [_Ae]2 | %156
 [_F_B_d]2 .[c^c].=d | e^f/e/ .d.e | =c2 z2 |!f! z2 [^G^g][Aa] | [^fa]2 ^ga | d2 [^G^g][Aa] | %162
 =g2 .=B.A |{/A} E z ^D z | E2 .=B.A |{/A} .E.^D .E.^F | G2 [dd'][^c^c'] |{/=B} =b2 ab | ^g2 ^f=g | %169
 z4 | z [=F_d] z [_E_A] | z [^C=A] z [=E=B] | z2 _d/_e/d/=c/ | _B/c/B/c/ =A/B/A/B/ | %174
 G/_A/G/A/ F/G/F/G/ | z4 | c2 c'/_d'/c'/_b/ | =a/b/a/b/ g/a/g/a/ | ^f2 .=B.^c | %179
 =f/g/f/g/ e/f/e/f/ |[K:Cb][M:4/4]!ff! z2 a3 ef_d | e z A z z2 =g=f | z2 ce a4 | [Ac]4 z2 [Ac] z | %184
 [_Bd]4 [ce]4 | [d_f][=ce][df] z B2 [fa]2 | [e_g] z [d_f] z e z [Bd] z | [Ac]4 z4 | %188
 [Bda] z z2 [Bda] z z2 | [cea] z z2 [ce=f] z z2 | [eb] z z2 [eb] z z2 | [dfb] z z2 z4 | %192
 z2 AB cBA=G | z2 AB cBA=G | z2 AB cdBc | z2 AB cdBc | z2 =A=B =cBA^G | =A=G^F=E =D^C=B,^A, | %198
[K:C] z8 | z8 | z8 | z8 | C4 F4 |{/[A,C]} A6 G^F | E z D z ^C z B, z |{/^F,} ^A,4 z2 D z | %206
 _E4 [C=E]4 |{/[^F,=B,]} DD D z z2 [D=F] z | [_A,C_E]4 [^A,^C^F]4 ||!mf! z8 | z4 z2 A2 | %211
{/DA} f z z2{/DA} e z z2 |{/DA} (5:4:5d/e/d/e/d/- d A .G.F.E.D | (3^c/d/c/^B c z (3=c/d/c/=B c z | %214
{/G} e3 d c_BAG | FGEF DECD |!f! ^C4 E4 | A4 z ^GAB | cBAc BA^GB | A3 E DCB,A, | %220
 (3_B/c/B/A B z (3G/A/G/F G z | d4- dfed | (3c/d/c/B c z (3A/B/A/G A z | z2 =F2 z [B,B][Cc][Dd] | %224
 [Ee][cc']/ z/ c4 _BA | [Dd][_B_b]/ z/ B4 AG | c3 f edc_B | A!f! z z2 z2 EF | GF E2 z2 FA | %229
 .^c2 .=c2 .=B2 ._B2 | A4 z2 F z | _B3 A BGBF | d z E4 _B z | A2 .^G.A =B2!f! .A.B | %234
 .^c.B .c2 .e.d .e2 | .^g.f .g2 z efg | a^ga_b aga=b | a^gae dcBA |{/c} _BA B2{/e} d^c d2 | %239
 f2 G3 agf | ec'/ z/ .f.e .d2 .c2 | GABc d4 | ^F=GAB [Ac]4 | z _B/ z/ B2 GABc | _g_afg d_e^cd | %245
 _BcAB _G_AFG | z8 | G8 | FE F2 E^DE z | _ED E2 z2 [C^F]2 | [DG]2 [A,^F]2 [=B,G]2 [CF]2 | %251
 [B,D]4 z2 ^F=G | _B,8 | B,4 z2 ^FG | ^C8 | ^C4 z2 ^FG | D4!mf! z2 ^AB | D8 | =d z ^cd ^G4 | %259
 ^g z ^^fg ^c4 | z8 | z4!f! .A2 .B2 ||[M:2/4] ^c2 Bc | A2 =GA | =F z F z | F2 .G.A | %266
{/A} _B/c/B/c/ _A/B/A/B/ | _G/_A/G/A/ F/=G/F/G/ | E z E z | E2!mf! .[ce].[^Gd] | ^c=d/c/ .B.=c | %271
 =c2 .f.e | de/d/ .^c.d | A2 =c/B/c/B/ | ^F2 _B/A/B/A/ | d^G ^c2 | e2 .d.e | =c2 .B.c | A z A z | %279
 A2 ._B.c | d2 .c.d | _B2 ._A.B | G z G z | z4 | [_Ac]2 _B2 | [=E^G]2 .G.=A | B3/2c/4B/4 .A.B | %287
 =G2 .E/.^F/.E | z2 ^G2 | z2 [A^c]2 | z4 | z2 [G_B]2 | z [_B,D][_Bd] z | z [_B,D][_Bd] z | z4 | %295
 z2 .A,.B, | ^C3/2D/4C/4 .^B,.C | D2 .^G,.A, | D2 D2 | .^B,.^C z2 | D/E/D/E/ =C/D/C/D/ | %301
 D2 =C/D/B,/C/ |[K:bass] ^A,/B,/^G,/=A,/ ^F,/G,/E,/=F,/ | z4 | z4 | z4 | z4 |[K:treble] z2 .F.E | %308
 _B2 .A.^G | d2 .[_B_b].[Aa] | g3/2a/4g/4 .f.g ||[M:4/4]!f! ^C8 | A8 | ^G4 ^F4 | E4 z2 .^G2 | %315
 .^F2 .E2 .^D2 .^C2 | B,A/ z/ A4 ^c z | B2 .A.^G .^F2 .G2 | A4 z2 .^G2 | ^F2 .E.^D .^C2 .=D2 || %320
[K:Ab] z2 E4 .F.G | __B_cde d4 | =c z a z _B z _g z | z2 A3 _F_G=G | (3A/B/A/G A_f (3_G/A/G/=F Ge | %325
 z2 z d/ z/ e/d/e/d/ _c__B | A3 =c =G=A=B^c | z2 _G_g/!mf! z/ g/a/g/a/ g/a/g/_a/4g/4 | %328
!f! _f z A z =d=c B z |[K:bass] =G,4 A,G,F,G, | B, z =D, z =D4 |[K:treble] E2 =GE _D2 FD | %332
 _C4- CE_GF | EFEB, DED_G, | A,3 _G A4 | z8 | z4 z2 .B2 | A2 ._G.F .E z .F z | B8 | _g8 | f4 e4 | %341
 d4 G2 f2 | e2 d2 c2 B2 | _g2 .f2 .=e2 ._e.d | _a2 ._g.f .e2 .d2 | ._f2 .e2 .=d2 _d=c | %346
 =f2 .e.d ._c2 .B2 ||[K:D]!mp! z8 | =D8 | _B8 | A8 | g8 | ^f8 | g2 f2 e2 f2 | d4 A4 | %355
!pp! a/4c'/4a/4c'/4a/4c'/4a/4c'/4 a/4c'/4a/4c'/4a/4c'/4a/4c'/4 a/4b/4a/4b/4a/4b/4a/4b/4 a/4b/4a/4b/4a/4b/4a/4b/4 | %356
 g/4a/4g/4a/4g/4a/4g/4a/4 g/4a/4g/4a/4g/4a/4g/4a/4 g/4a/4g/4a/4g/4a/4g/4a/4 g/4a/4g/4a/4g/4a/4g/4a/4 | %357
 g/4a/4g/4a/4g/4a/4g/4a/4 g/4a/4g/4a/4g/4a/4g/4a/4 g/4a/4g/4a/4g/4a/4g/4a/4 g/4a/4g/4a/4g/4a/4g/4a/4 | %358
!mp! g4 b4 | c'8 | e4 f4 | g4 a4 | b8 | a8 | e8 | f2 e2 ^d2 e2 | [fg]8 | [^eg]8 | f8 | =f8 | a8 | %371
 g'8 | =f8 | g2 =f2 e2 ^f2 | [^F^c]4 F4- | F8 |!mp! [GBe]8 | [G_B]8 |{/A} a8 | g8 |!mf! A8- | A8 | %382
 G4 F4 | E4 F4 | F8- | F8 | [E^G]8 | A2 =G2 F2 G2 | C8- | C8 | ^G4 F4 | ^E4 F4 |!mp! f8 | %393
 g2 f2 ^e2 f2 | [df]8 | g2 f2 e2 f2 | a8 | B8 | z8 | z8 | _B4 A4 | ^G4 A4 | [^Ad]8- | [Ad]8 | %404
{/=A} ^d8- | d4 =d4 | c8 | z8 | _B8 | d2 c2 =B2 c2 |{/D} =c2 _B2 A2 B2 | A2 G2 ^F2 G2 | d8- | d8 | %414
 A4 ^G4 | ^F4 ^G4- | G4 F4 | ^E4 F4 | =G8- | G8 | G8- | G8 |!mp! d8- | d8- | d8- | d8 | z8 | z8 | %428
 c4 B4 | ^A4 B4 | z8 | z8 | =f2 e2 ^d2 e2 | _B8 | _B2 A2 ^G2 A2- | A8 | =F4 E4 | _E4 ^C4 | %438
 [D=F_A_B]8- | [DFAB]8- | [DFAB]8- | [DFAB]8 |!mp! [D=A]8- | [D=A]8 | ^f4 gfef | g z c z _e'4 | %446
 _e'2 ^f'^c' =c'2 _e'b | _b6 z2 |!mp! z8 | z8 |!mp! _D8 | _B8 | ^F8 | _e8 | d4 _ed^cd | %455
 _e2 A2 _c'4 | _c'2 d'=a _a2 _bg | _g6 z2 |!mp! z8 | z8 | =B8 | =c2 B2 ^A2 B2 |!mp! d8 | ^F8 | %464
 G4 [=FA]4 | [_EG_B]4 z2 E z | .[=FA]4 .[DG_B]4 | [=FA=c]4 z2 .[FA]2 | %468
 .[G_B]2 .[_E_A=c]2 .[_GBd]2 .[_Ac=e]2 | ^f8- | ^f8 | B8 | =c2 B2 ^A2 B2 | b8- | b8 | %475
 b2 .d'.b f2 .b.f | d4 z4 | g4 [dg]4 | ^c7 z | =c_BAG =FGAF | ^F2 z2 z4 | z8 | ^d8 | %483
 e2 ^d2 ^^c2 d2 |!mp! f8 | ^G8 | [=G=c]8 | [EG]8 | ^G8 | =G8 | =F8 | =A4 G4- | [GB-]8 | [=FB]8 | %494
 [=g^a]8- | [=ga]8 | G8- | G8 | F2 E2 ^D2 E2 | z8 | z8 | z8 | z8 | E4 B,4 | E8 | E4 z4 | %506
!mf! .^G, z .^^F,.G, ^A,4 | .^G, z .^^F,.G, ^A,4 | C z ^B,C =C z =B,C | ^C z ^B,C =F z EF | %510
 C z ^B,C [CE] z ^DE | _D4- _D_E=CD | [_B,_D]4 =D4 | [_A,=C]4 =F z .E.F | %514
 [_A,_D]4 [=F_A] z .[=EG].[FA] | .[_A_c].[G_B].[^F=A].[=EG] [=D=F]4 | %516
 .[_A=c].[G=B].[_G_B].[_F_A] [_E=G]4 | [G_B][^F=A][GB][FA] [=EG][^D^F][EG][DF] | _D7 z | _B7 z | %520
 _A4 _G4 | _F6 z2 |[K:C]!f! [cf=a]8 | [FAB]6 AB | [FAc]4 [ABd]4 | [Ace]4 z2 [Aca]g | %526
 .^f2 .e2 .d2 .c2 | [Bd=f]4 z2 [fa]2 | (3.^g2 .a2 .^f2 (3.a2 .=f2 .a2 | [ce]4 z2 Bc | dc B2 z2 cd | %531
 (3e2 f2 d2 e2 z2 | B z BG A z A^F | [G^c]4 z2 [Aa][Bb] | [=c=c'][Bb] [Aa]2 z2 [Aa][Bb] | %535
 =f4 z2 [Aa][Bb] | [cc']2 [dd'][Bb] [cc']2 [Aa][Bb] | =f2 [Aa][Bb] e2 [Aa][Bb] | ^d^f/ z/ f4 f^g | %539
 (9:8:9^d/e/d/e/d/e/d/e/d/ z2 e^f | A z B^c ^G z z G | A^cBA ^GBAG | z8 | z z z2!ff! z2 ^F z | %544
 ^F4 =G4 | A4 z2 [GA] z | [^FA]4 G4 | ^F4 z2 F2 | ^F4 .[E^G] z .E z | ^D4 z2 D z | E4 ^E4 | %551
 z4 z2 ^F2 | G z .[G=A]2 .[^FA]2 .[G=c]2 | [B^d]8 | [Be^g]4 [^c^f^a]4 | ^c'2 b z .^a2 .^g2 | %556
 [_e=g]4 z2 ^f2 | =a2 g z .=f2 ._e2 | z8 | z4 z2 [^GB] z | [_A_d]4 =d z E2 | F z z2 z2 =G z | %562
 A2 B z z2 =G2 | A4 z2 [AB] z | G2 .[ce].[B=d] .[Ac].[=GB].[=FA].[EG] | .^c.B.c.=f .e.[^df].e._b | %566
 .f.e .f2 z2 ^f2 | .[ga] z .g.[=f_a] .[eg] z .e.[Bf] | .[ce] z .c.[^Gd] .[Ac] z z2 | z4 z2 e z | %570
 ^c2 [df] z B z B z | =cde z z2 [^f_a] z | ^f2 [eg] z e z [Ec]^F | [Gd]A^FG z =fed | f3 e z2 cd | %575
 e z gf e z ^dc | z4 cBAB | c z =D z ^f4 | z4 =edcd | e z ^G z b4 | ^f z z2 z2 ^de | %581
 A z ^de A z de | A z ^de B z de | ^c z e=f d z f=g | a^g a2 d'^c' d'2 | f'e' f'2 z2 d'2 | %586
 ^c'd'_b=c' abga | f4 z2 ^GA | ^C4 z2 ^B^c | f4 z2 ^GA | _BcBc dede | cdcd _efef | %592
!mp! g/4a/4g/4a/4g/4a/4g/4a/4 g/4a/4g/4a/4g/4a/4g/4a/4 f/4g/4f/4g/4f/4g/4f/4g/4 f/4g/4f/4g/4f/4g/4f/4g/4 | %593
 _e/4f/4e/4f/4e/4f/4e/4f/4 e/4f/4e/4f/4e/4f/4e/4f/4!ff! z2 d2 | .f z .d z .=B z .d z |{/A} G4 z4 | %596
 C4 _E4 | =A4 z4 | z8 |{/G} ._A2 .A2 .A2 G=A | _BcBc FGFG | ^GAGA z2 _B,=B, | %602
 .=C2 .^G.A .F2 .^c.d |{/=G} F/4G/4F/4G/4F/4G/4F/4G/4 F/4G/4F/4G/4F/4G/4F/4G/4 EF =cd | %604
 ._e2 ge .d2 fd | z2 z a z2 f z | z2 z a z2 f z | z2 A_B z2 ^ga | z2 A_B z2 ^cd | d z d z z2 d z | %610
 z2 d z z2 d z | [df]ed^c fedc | fed^c fedc | fgfg [df]gfg | [df]gfg [df]gfg | [ff']8 | [^g^g']8 | %617
 z8 | [B,D][B,D][B,D] z z4 | F3 ^D E3 =D | C3 B, CE^F^G | A2 cA =G2 _BG | F4- FAFE | %623
!f! (5:4:5_b/c'/b/c'/b/!ff! ab!f! (5:4:5g/a/g/a/g/!ff! ^fg | %624
!f! z2!ff! (5:4:5_e/f/e/f/e/ de ^c ^FGA | B2 G_E A2 ^F^D | _A2 =F=D G2 _E^C | [_DF]8 | %628
 [DF^G]6 ^de | A^G A4 B=c | dc B2 z2 c^d | z Bcd BABc | %632
 A^GAB!f! F/4=G/4F/4G/4F/4G/4F/4G/4 F/4G/4F/4G/4F/4G/4F/4G/4 |!ff! c3 d _e3 G | z2 z _B dfd z | %635
 _e z z2{/A} [G_B=e]4 |!f! F/_E/F/E/ F/E/F/E/ F/E/F/E/ F/E/D/E/ |!ff! z8 | .F._A ._d2 .=A.^c .g2 | %639
 [_A_d]8 | [^G=df]6!fff! z2 | z4 z2{/e} f z | (5:4:5A/B/A/B/A/ ^G z G z{/e} f z | %643
 (5:4:5A/B/A/B/A/ ^G z G z z2 | z4 z2 (3e^f^g | a2 e z e z e z | (5:4:5f/g/f/g/f/ e z e z e z | %647
{/d} [^fa]4 [e^g][fa][eg][df] | [^ce] z [ce] z d4 | ^G z G z A z D z | %650
{/d} [^fa]4 [e^g][fa][eg][df] | ^f z f4 =f z | z8 | z8 | z8 | z8 | [gb]4 [f_b]4 | %657
{/c'd'} c'=bc'd' c'bac' | _bac'b a^gba |{/f'} [=g_be']2 z2{/e'} [fad']2 z2 | %660
 z2{/d'} [^dac']2 z2{/c'} [=d^g_b]2 | a^g .a2 z4 | a^g .a2 z4 |{/_b} a^g .a2{/b} ag .a2 | %664
{/_b} a^g .a2{/b} ag .a2 | =A4 z2 =Bc | =dc =B2 z2 ce | [Ace][^Gce] [Ace] z z4 |] %668
V:5
 x2 | x8 | x8 | x8 | x8 | x8 | x8 | x5[K:bass] x3 | x8 |[K:treble] x8 | x8 | x8 | x8 | x8 | x8 | %15
 x8 | x8 | x8 | ^c4 x4 | x8 | =A4 x4 | x8 | x8 | x8 | x8 | x8 | x8 | x8 | x8 | x8 | x6 ^DE | x8 | %32
 x8 | x8 | x8 | x8 | x8 | x8 | z2 B z z4 | x8 | x8 | x8 | [Ac]4 z2 ^de | x8 | x8 | x8 | x8 | x8 | %48
 x8 | x8 | x8 | x8 | x8 | x8 | x8 | x8 | x8 | x8 | x8 | x8 | x8 | x8 | x8 | x8 | x8 | x8 | x8 | %67
 x8 | x8 | x8 | x8 | x8 | x8 | x8 | x8 | x8 | x8 | x8 | x8 |[K:F] x8 | x8 | x8 | x8 | x8 | a4 x4 | %85
 x8 | x8 | x8 | x8 | x8 | x8 | c4 x2 e z | x8 | x8 | x8 | x8 | x8 | x8 | x8 | x8 | x8 | x8 | x8 | %103
 x8 | x8 | x8 | x8 |[K:bass] x8 | x8 |[M:2/4][K:treble] x4 | x4 | x4 | x4 | z2 z [_DF] | x4 | x4 | %116
 x4 | x4 | x4 | x4 | x4 | x4 | x4 | x4 | x4 | x4 | d2 z2 | x4 | x4 | E2 ^G/=G/^F/=F/ | x4 | x4 | %132
 x4 | x4 | x4 | x4 | x4 | x4 | x4 | x4 | x4 | x4 | x4 | x4 | x4 | x4 | x2 FG | x4 | F2- F/.G/F | %149
 x4 | x4 | x4 | x4 | x4 | x4 | B/c/B/_A/ A/B/A/_G/ | x4 | x4 | x4 | x4 | x4 | x4 | x4 | x4 | x4 | %165
 x4 | x4 | x4 | x4 | x4 | x4 | x4 | x4 | x4 | x4 | x4 | x4 | x4 | x4 | z [A=c] z [Gc] | %180
[K:Cb][M:4/4] x2 =de A4 | z2 Bc dc B2 | e=fce cd__Bc | x8 | x8 | x8 | x8 | x8 | x8 | x8 | x8 | x8 | %192
 x8 | x8 | x8 | x8 | x8 | x8 |[K:C] x8 | x8 | x8 | x8 | x8 | x8 | x8 | x8 | x8 | x8 | x8 || x8 | %210
 x8 | x8 | x8 | x8 | x8 | x8 | x8 | x8 | x8 | x8 | x8 | x8 | x8 | =f4 x4 | x8 | x8 | x8 | x8 | x8 | %229
 x8 | x8 | x8 | x8 | x8 | x8 | x8 | x8 | x8 | x8 | f6 x2 | x8 | z d/ z/ d3 A^G^F | x8 | %243
 .d2 .c.d x4 | x8 | x8 | x8 | x8 | x8 | x8 | x8 | x8 | x8 | x8 | x8 | x8 | x8 | x8 | x8 | x8 | x8 | %261
 x8 ||[M:2/4] x4 | x4 | x4 | x4 | x4 | x4 | x4 | x4 | A2 =G2 | .=F.B .A.G | x4 | x4 | x4 | =F2 Ad | %276
 x4 | x4 | x4 | x4 | x4 | x4 | x4 | x4 | x4 | x4 | x4 | x4 | x2 .E/.^F/.E | x4 | x4 | x4 | x4 | %293
 x4 | x4 | x4 | x4 | x4 | x4 | x4 | ^A,2 A,2 | ^A,2 A,^G, |[K:bass] ^F,2 x/ ^G,3/2 | x4 | x4 | x4 | %306
 x4 |[K:treble] x4 | x4 | x4 | x4 ||[M:4/4] x8 | x8 | x8 | x8 | x8 | x8 | x8 | x8 | x8 || %320
[K:Ab] x8 | x8 | x8 | x8 | x8 | x8 | x8 | x8 | x8 |[K:bass] x8 | x8 |[K:treble] x8 | x8 | x8 | x8 | %335
 x8 | x8 | x8 | x8 | x8 | x8 | x8 | f4 e2 d2 | =A_g/ z/ =g4 b z | c2 B2 A2 a_g | _c4 z2 ._g z | %346
 .d2 .f2 ._g.f.e.d ||[K:D] x8 | x8 | x8 | x4 z4 | x8 | x8 | x8 | x8 | x8 | x8 | x8 | g8 | x8 | x8 | %361
 x8 | e4 d4 | c4 d4 | c4 B4 | ^A4 B4 | x8 | x8 | x8 | x8 | a4 g4 | =f4 _e4 | x8 | x8 | x8 | x8 | %376
 x8 | f2 e2 ^d2 e2 | x8 | x8 | x8 | x8 | x8 | x8 | x8 | E2 D2 C2 D2 | x8 | x8 | x8 | x8 | x8 | x8 | %392
 x8 | x8 | x8 | A8 | x8 | x8 | x8 | x8 | x8 | x8 | x8 | x8 | x8 | x8 | x8 | x8 | x8 | x8 | x8 | %411
 x8 | _B6 A2 | G2 =F2 E2 ^F2 | x8 | x8 | x8 | x8 | c8- | c4 B4 | ^A4 B4 | d4 c4 | x8 | x8 | x8 | %425
 x8 | x8 | x8 | x8 | x8 | x8 | x8 | x8 | x8 | x8 | x8 | x8 | x8 | x8 | x8 | x8 | x8 | x8 | x8 | %444
 x8 | x8 | x8 | x8 | x8 | x8 | x8 | x8 | A4 G4 | =F4 z4 | x8 | x8 | x8 | x8 | x8 | x8 | x8 | x8 | %462
 x8 | x8 | x8 | x8 | x8 | x8 | x8 | [^F^A^c]2 z2 z4 | x8 | x8 | x8 | x8 | z4 z2 df | x8 | x8 | x8 | %478
 z4 z2 A_B | =F4 _B4 | x8 | x8 | x8 | x8 | x8 | x8 | x8 | x8 | x8 | x8 | x8 | E8 | x8 | x8 | x8 | %495
 x8 | x8 | x8 | x8 | x8 | x8 | x8 | x8 | x8 | x8 | x8 | x8 | x8 | x4 E4 | x8 | x8 | x8 | %512
 x4 F z =EF | x8 | x8 | x8 | x8 | x8 | x8 | x8 | x8 | x8 |[K:C] x8 | x8 | x8 | x8 | [Bd]4 e4 | %527
 x6 e^f | (3:2:5e z x2 d z (3:2:5[ce] z x2 [Bd] z | x8 | x8 | A3 A/c/ e2 Ac | x8 | x8 | x8 | x8 | %536
 x8 | x8 | ^d2 z2 c2 z B | x8 | x8 | x8 | x8 | x8 | x8 | x8 | x8 | x8 | x8 | x8 | x8 | x8 | x8 | %553
 z4 z2 ^^f z | x8 | [^d^f]4 d4 | x8 | =d4 z4 | x8 | x8 | x8 | x8 | x6 z ^F | G3 ^F G3 z | x8 | %565
 =a4 x4 | x8 | x8 | x8 | x8 | x8 | x8 | x8 | x4 ^G4 | ce z2 x4 | x8 | x8 | x8 | x8 | x8 | x8 | x8 | %582
 x8 | x8 | x8 | x8 | x8 | x8 | x8 | x8 | x8 | x8 | x8 | x8 | x8 | x8 | x8 | x8 | x8 | x8 | x8 | %601
 x8 | x8 | x8 | x8 | ^c4 _B4 | ^c4 _B4 | d4 f4 | d4 _b4 | x8 | x8 | x8 | x8 | x8 | x8 | x8 | x8 | %617
 x8 | x8 | x8 | x8 | x8 | x8 | x8 | x10 | x8 | x8 | x8 | x8 | x8 | x8 | x8 | x8 | x8 | x8 | x8 | %636
 x8 | x8 | x8 | x8 | x8 | x8 | x8 | x8 | x8 | x8 | x8 | x8 | x8 | x8 | x8 | x8 | x8 | x8 | x8 | %655
 x8 | x8 | x8 | x8 | x8 | x8 | x8 | x8 | x8 | x8 | F6 z2 | [F^G]6 z2 | x8 |] %668
V:6
!f! z2 | z4!ff! z2 ^C,^D, | E,^D, ^C,2 z4 | z4 z2 [_E,=F,] z | .[^D,^F,]4 .[D,F,]4 | z8 | _A,4 z4 | %7
 z2 z3 E,=F,=D, | E, z A,, z z2 ^G,^F, | E, z D, z C, z B,, z | A,,4 z2 E, z | [B,D]4 [A,C]4 | %12
 [^G,B,][^F,A,] [G,B,] z z2 [=FA]2 | [E^G] z [DF] z [CE] z [B,D] z | [A,C]4 z2 A, z | %15
 [B,D]4 [CE] z [DF] z | CA A3 z [CE] z |[K:treble] [EG]4 [^FA] z [GB] z | [EG] z ^F z [EG] z ^c z | %19
 [B,^F]4 E z D z | =C z B, z A, z B,C | D z CB, A, z B, z | E4!f! z4 | %23
[K:bass] _A,,2 G,, z z2 B,, z | F,2 =A,, z z2 B,,2 | C, z B,, z C, z ^F, z | G,2 G,, z z2 E,2 | %27
 .=F,2 ^A,B, .F z .E.D | ^C z AG ^F z B, z |[K:treble] z ^deB c^GA^F | z ^DEB, z[K:bass] =G,A,E, | %31
 z2 .G,,2 .=D,2 .G,,2 | z2 .G,,2 .^D,2 .G,,2 | .E,2 .G,,2 .C2 .G,,2 | z4 C z [A,C] z | B,4 x4 | %36
 [A,C] z [G,_B,] z [F,A,] z [E,G,C] z | [D,F,_B,] z [C,E,A,] z [_B,,D,G,] z [A,,C,F,] z | %38
 z4 z2[K:treble]!ff! GA | D4 z4 |[K:bass] z8 | z4 z2 B,^C | ^D4 z2 B,^C | ^D z B,^C D z DE | %44
 z2{/^D} E2 x4 | =DC B, z z2 C[DE] |[K:treble] (3.^G2 .A2 .[D^F]2 (3.A2 .=F2 .[CEA]2 | [A,CE]4 z4 | %48
!f! .^F2 .E2 .D2 .C2 | B,4 z2 E^F | ^GAGA =FAFA | E4 D z E z | F4[K:bass] [E,E] z [F,F] z | %53
 [A,A]3 z E z ^F z |[K:treble] G3 A/G/ [G,^C^F] z G z | [B,B]3 z ^F z [G,G] z | %56
 z4[K:bass] (3z2 .A,2 .B,2 | (3.C2 .B,2 .A,2 [E,E] z [F,F] z | z4 (3z2 .A,2 .B,2 | %59
 (3.C2 .D2 .B,2 [^F,^F] z [^G,^G] z |[K:treble]{/[B,B]} A4 ^G z A z |{/A} G4 ^F z [G,G] z | %62
 =F/G/F/G/ F2 E z F z | E/F/E/F/ E2 ^D z E z |!ff! [_A,_DF]4 [=DF]4 | [CE][CE] [CE] z z2 [A,CE] z | %66
{/D} G4{/[G,CE]} G4 | z8 | z4[K:bass] _A,, z C, z | F,2 _E, z D, z _D, z | C,4 F,4 | %71
 ^F,2 =E, z z2 ^G, z | A,4 z2 _E,2 | .[G,B,].B, .B, z z2 ^G,^F, | [A,C] z [B,D] z [CE] z z2 | %75
{/A,} C4 z2 F z | ED [G,C] z z2 [E,E] z | F,4 [=E,=E] z [F,F] z | [=D,=D]4 ^C z F,=G, | %79
[K:F] A,4 D4 | F4 z2 D2 | ^C z _B, z A, z G, z | F,4 z2 ^GA | ^C4 z2 ^GA | F4 z2 DE | %85
 F z DE [DF]EDE | CDCD _EFEF | D,_E,D,E, B,,C,B,,C, | ^C,D,C,D, z2 =C,B,, | %89
 _A,,G,,F,,=E,, F,,G,,A,,F,, | G,,4 z4 | _A,,C, _E,2 z4 | C,4 z _E,D,C, | D,F, B,2 z2 CD | %94
 B,CB,C _A,B,A,B, | G,B, _E2 z DCB, | _A,_E, C,2 z B,=A,G, | F,=E,F, z2 D,E,F, | %98
 ^G,^^F,G, z2 A,=G,=F, | E,D,^C,=B,, C,D,E,C, | D,4 z2 E,^F, | G, z =F,G, B, z A,B, | %102
 D z D z D z C2 | B,CA,B, G, z D, z | _D,_E,F,G, [=D,_A,=D] z [=E,=E] z | %105
{/[G,=B,=D]} [F,F]4 E z F z |!mf! .[E,^G,D].[E,G,D].[E,G,D].[E,G,D] [E,G,D] z .^A, z | %107
 =B,4 .^A, z .B, z | ^G,2 z2 z4 |[M:2/4] .=F,.[=C,E,]/.F,/ .C,.=B,,/.C,/ | %110
 ._D,.C,/.D,/ ._A,,.G,,/.A,,/ | .=A,,.=E,, .A,,.E,, | A,,2 _A,,2 | G,,4 | G,=A,/G,/ .F,.G, | %115
 E, z E, z | E,4 | z4 | z2 =E,^F, | ^G,/A,/G,/A,/ ^F,/G,/F,/G,/ | E,2 ^D,E, | ^C2 A,2 | E,4 | %123
 =F,2 ^F,2 | G,2 ^G,2 | .D.^C .D.^G, | z2 ^G,2 | D z D z | .D.^C/.D/ .D.C/.D/ | ^C2 =B,C | %130
 A,2 =G,A, | =F, z F, z | F,2 G,_A, | =A,2 G,A, | F,2 _E,_D, | z4 | z4 | z4 | C z C z | C2 B,C | %140
 _A,2 A,2 | _A,3 A, | z __B, z _A, | [_F,_B,]4 | [_F,_C]4 | [=A,=C]4 | [_E,B,]2 [=E,B,]2 | %147
 .C/.D/.C .[CD]/.E/.[CD] | .C/.D/.C .C.C | _G,,2 =G,,2 | =A,,2 B,,2 | C,2 _D,2 | _E,2 F,G, | %153
 _A,2 G,2 | F,2 _E,2 | _D, z _A,, z | =A,, z z2 | [A,^C] z [E,=B,] z | %158
 [F,A,]2[K:treble]!f! [D^G][^FA] | [DA]2 =B2 | ^c2 .[^G=B].A | ^F2 .E.D |[K:bass] E2 .D,.A,, | %163
 .D,.A,, .^C,.A,, | .D,.A,, .^C,.A,, | ._B,,.A,, .=B,, z | z2[K:treble] D^F | A2 =B2 | [^G^c]2 d2 | %169
 =F2 _EF |[K:bass] ^C2 =B,C | =E,2 ^F,^G, | .=B,.A, .^G,.^F, | =G,4 | z4 | %175
[K:treble] .[CE]/.[_DF]/.[CE] .[C=DF]/.[_EG]/.[DF] | .[C_EG]/.[_F_A]/.[EG] C2 | [=F=A]2 [CG]2 | %178
[K:bass] [D^F]2 [A,E]2 | .[=F,A,].[E,^G,]/.[F,A,]/ .[=G,C].[F,=B,]/.[G,C]/ | %180
[K:Cb][M:4/4][K:treble]!ff! z2 A2 z EFD | E z A, z z2 =G=F | E4 A4 | A,4 z2 E z | %184
{/_F} ED E z{/_F} ED E z | c3 A =G=FED | (3CEA .c z .[Ac] z .[Ac] z | C4 (3z2 B,2 C2 | %188
 _F z z2 [DF] z .C.D | [CA] z z2 [CEA] z .C._D | G z z2 [EGB] z .D.E | %191
 [DB] z z2 z2[K:bass] .[_C,_C].[_D,_D] | (3.[=D,=D]2 .[_E,_E]2 .[=C,=C]2 [D,D] z z2 | %193
 (3.[_F,_F]2 .[G,G]2 .[E,E]2 [F,F] z z2 | (3.[=F,=F]2 .[G,G]2 .[=E,=E]2 (3.[F,F]2 .[G,G]2 .[E,E]2 | %195
 (3.[=F,=F]2 .[G,G]2 .[=E,=E]2 (3.[F,F]2 .[G,G]2 .[E,E]2 | [=F,=A,_E]8 | =E3 z z2 E z | %198
[K:C] [=A,_DF]4 [=DF]4 | [CE][CE] [CE] z z2 D z |{/[C,G,]} C4{/[G,D]} G4 |{/G,} G4 z2 C z | %202
 z2 A,, z _B,, z D, z | G,2 F, z E, z _E, z | D,2 ^F, z G, z z2 | z4 z2 _B, z | %206
{/_E,} [G,_B,]4{/C,} G, z ^F,=E, | D, z ^C, z =B,, z A,, z | z4 z2!f! ^G,=A, || D,6 E,=F, | %210
 =G,F, E,2 z2 F,A, | .^C2 .=C2 .B,2 ._B,2 | A,4 z2 F, z | _B,3 A, B,G,B,F, | _B, z E,4 B, z | %215
 A,2 .G,.A, =B,2 .A,.B, |!f! z8 |{/G,} F,E, F,6 |{/F,} E,^D, E,2{/E,} =D,^C, D,2 | %219
{/D,} =C,B,, C,2 z2 E,2 | .D,.E,.C,.D, .B,,.C,.A,,.B,, | G,,F,/ z/ F,4 A, z | %222
 G,2 .F,.E, .D, z C, z | B,,4 z .F,.E,.D, | .C,.B,, A,,2 z ._E,.D,.C, | %225
 ._B,,.A,, G,,2 z .D,.C,.B,, |[K:treble] C3 F EDC_B, | A,!mf! z z2 z4 |[K:bass] _B,8 | A,4 G,4 | %230
 F,4 z2 A,2 | G, z F, z E, z D, z | C,_B,/ z/ B,4 D z | C2 _B,A, G, z!f! [D,F,]E, | ^C4 E4 | %235
[K:treble] ^G4 z E^FG | A3 _B A3 =B | (5:4:5A/B/A/B/A/- A E[K:bass] DCB,A, | _B,4 D4 | F2- F3 AGF | %240
[K:treble] Ec/ z/ c3 =BAG |[K:bass] FA,B,C D4 | .E2 .D.E C4 | .D2 .C.D G,[A,C][_B,D][CE] | %244
[K:treble] _G_AFG D_E^CD |[K:bass] _B,=CA,B, _G,_A,F,G, | [_B,_D]8 | _D8 | C_D C2 DC D2 | %249
 C=B, C2 z2 =A,,2 | =B,,C,B,,C, D,=E,D,E, | F,E, F,2 z4 | z2 G, z _A,4 | z2 ^C, z D,4 | %254
 z2!mf! =A, z _B,4 | z2 D, z _E,4 | z2 =C z ^G,4 | z2 ^F z _B,4 |[K:treble] z2 =B z D4 | %259
 z2 ^c z ^G4 | ^c3 ^G c3 G | ^e^deB edeB ||[M:2/4][K:bass] E,2 ^E,2 | ^F,2 =G,2 | C2 B,2 | %265
 A,2 G,2 | D,2 E,2 | ^F,2 G,2 | ^G,2 A,2 | _B,2 C2 | z4 | z4 | ^F2 =F2 | E2 ^D2- | D2 .=D.C | %275
 _B,2 .^C.D | [E,E]2 .D.E | [^F,=C]2 .=B,.C | A, z A, z | A,2 ._B,.=C | D2 .C.D | _B,2 ._A,.B, | %282
 ._B, z .C z |[K:treble] z2 G/_A/G/F/ | F/G/F/_E/ E/F/E/_D/ | _C2 z2 |[K:bass] .=E, z .=B,, z | %287
 C,2 .A,.^C | [A,^CE]2 .A,.C | E2 .^F.^G | .A.^G .^F.E | [_B,D]2 .B,.D | .G/.G/.G .=B,.D | %293
 ^F2 ._B,.D | =F3/2G/4F/4 .E.D | [E,^G,C]2 z2 | ^D,2 E,2 | F,2 ^F,2 | =G,2 ^G,2 | z2 ^E,2 | %300
 .^F,.G,/.F,/ .E,.F,/.E,/ | D,4 | z4 | z2 .C,.E, | A,2 .E,.G, | _B,2 ._E.D | _B,C/B,/ .A,.B, | %307
 G,2 .F,.=E, | A,4 | F4 | G3/2A/4G/4 .F.G ||[M:4/4]!f! z4 z2 ^D,E, | ^F,E, ^D,2 z2 E,^G, | %313
 ^B,2 ^DB, =A,2 B,A, | ^^F,6 ^B,^D | ^C^B,CA, =B,A,B,^G, | A, z ^C,3 ^D,E,^F, | ^G,B,E^D =D4 | %318
 ^C2 EC B,2 ^DB, | ^A,4 =A, z B,A, ||[K:Ab] A,8 | _F8 | E4 D4 | _C4 z2 E z | D z _C z B, z A, z | %325
 _G,_F/ z/ F4 F z | _G2 ._F.E .D2 .E2 | z2 _G, z!mf! _G/A/G/A/ G/A/G/A/4G/4 | %328
!f! _F z A, z =D=C B, z | z8 | _F,4 _G,F,E,F, | _G, z B,, z B,4 | E,4 z2 D,E, | =F,3 _G, A,3 B, | %334
 _C z D, z FEDC | _G3 D F3 =C | E2 _GE D2 =FD | _CB,CD CEDC |[K:treble] D4 F4 | d4 z2 .=c.B | %340
 .=A2 .=G2 F4 | F=EF_G F2 ._E.D | z8 | z8 | z8 | z8 | z8 ||[K:D]!mp! z8 |[K:bass] A,8 | [_B,D=F]8 | %350
 [D=F]8 | ^C8 | z8 | z8 |!p! !arpeggio!.[F,A,F] z z2 z4 |!mp! z8 |[K:treble] ^d8 | f2 e2 ^d2 e2 | %358
 d4 A4 | g8 | d4 c4 | B4 c4 |[K:bass] [A,^E]8 | F8 | [D,-F,^A,D]8 | [D,G,B,^D]8 | [D,-G,=C]8 | %367
 [D,F,^A,^C]8 | [D,-=F,=A,D]8 | [D,=F,^G,D-]8 | D4 C4 | B,4 A,4 | z8 | z8 | [A,D]8- | [A,D]8 | %376
!mp!{/D,,} [B,,G,] z z2 z4 | z8 |[K:treble] G8- | G8 |[K:bass]!mf! A,8- | A,8 | [F,-D]8 | [F,C]8 | %384
 A,8 | z8 | D,2 C,2 B,,2 C,2 | [E,B,]8 | [C,F,]8 | [C,F,]8- | [C,F,]8 | [C,F,A,]8 |!mp! z8 | z8 | %394
 F,8- | F,8 | [G,-B,-E]8 | [G,B,]8 | [_B,=F-]8 | F4 ^F4 | [=CG-]8 | [^CG]8 | D8 | E2 D2 ^C2 D2 | %404
[K:treble] =F8 | _B8 | ^G8 | ^F8 | =G8- | =G8 |[K:bass] [=F,_B,]8- | [F,B,]8- | [F,B,]8- | %413
 [F,B,]8 | %414
!pp! E/4D/4E/4D/4E/4D/4E/4D/4 E/4D/4E/4D/4E/4D/4E/4D/4 E/4D/4E/4D/4E/4D/4E/4D/4 E/4D/4E/4D/4E/4D/4E/4D/4 | %415
 E/4D/4E/4D/4E/4D/4E/4D/4 E/4D/4E/4D/4E/4D/4E/4D/4 E/4D/4E/4D/4E/4D/4E/4D/4 E/4D/4E/4D/4E/4D/4E/4D/4 | %416
 E/4D/4E/4D/4E/4D/4E/4D/4 E/4D/4E/4D/4E/4D/4E/4D/4 E/4D/4E/4D/4E/4D/4E/4D/4 E/4D/4E/4D/4E/4D/4E/4D/4 | %417
 E/4D/4E/4D/4E/4D/4E/4D/4 E/4D/4E/4D/4E/4D/4E/4D/4 E/4D/4E/4D/4E/4D/4E/4D/4 E/4D/4E/4D/4E/4D/4E/4D/4 | %418
!mp! ^A,8- | A,4 B,4 | z8 | z8 |!mp! z8 | z8 | z8 | G,2 F,2 E,2 F,2 | D4 C4 | B,4 C4 | A,8- | %429
 [A,D]8 | A,8 | A,8 | D4 C4 | ^B,4 C4 | A,8- | A,2 G,2 F,2 G,2- | G,8 | =F,4 _E,4 | [D,=F,_A,]8- | %439
 [D,F,A,]8- | [D,F,A,]8- | [D,F,A,]8 |!mp! [D,A,]8- | [D,A,]8 | z8 | z8 | z8 | %447
 E,2[K:treble]!pp! (5:4:5G,/_B,/^C/_E/=F/ (5:4:5G/A/^c/_e/=f/ g/_b/^c'/_e'/ |!mp! z8 | z8 | %450
[K:bass]!mp! [=F,_B,]8 | [_G,_D=E]8 | [=G,_DE]8 | [=C_E]8 | z8 | z8 | z8 | %457
 z4[K:treble]!pp! (5:4:5E/F/A/B/c/ (5:4:5e/f/a/b/c'/ |!mp! z8 | z8 | z8 | z8 |[K:bass]!mp! D4 =C4 | %463
 [_E,G,_B,_E]8 | =E2 DE =C2 _B,C | G,4 x4 | .[=F,A,=C]2 .[_E,G,_B,]2 .[=C,F,A,]2 .[_B,,E,G,]2 | %467
 [=C,=F,]4 z2 [G,=C_E]2 | .[_B,D]2 .=C.D .B,2 ._A,.B, | [_B,,_D,_G,]2 z2 z4 | z8 | z8 | %472
 z4 z2[K:treble] ^e^f | =B4 z2 =c=d | ed =c2 z4 | A4 ^G4 | B6 ^AB | =ABAB GAGA | G7 z | z8 | %480
 ^F,2 z2 z4 | z8 | z8 | z8 |!mp! [B,F]8- | [B,F]8 |[K:bass] =C8 | D2 =C2 B,2 C2 | ^D8 | [=G,=D]8 | %490
 ^G,4 A,4 | ^A,8 | [=G,B,]8- | [=G,B,]8 |{/=C,} [E,G,=C]8- | [E,G,C]8 | z8 | z8 | z8 | %499
 D2 =C2 B,2 ^C2 | G,4 E,4 | =C8 | A,2 G,2 F,2 G,2 | B,4 z4 | F,2 E,2 ^D,2 E,2 | =C8 | %506
!mf! .F,2 .E,2 .^D,2 .E,2 | .F,2 .E,2 .^D,2 .E,2 | [^C,^G,]4 A,2 z2 | [^C,^G,]4 [=CD]2 z2 | %510
 [^C,A,]4 z4 | _B,2 z2 z4 | z8 | z8 | z8 | z8 | z8 | z8 | [_D,=F,]8 | [_F,_A,_D]8 | [=F,_A,]8 | %521
 [=G,=B,]6 ^G,=A, |[K:C]!f! D,6 E,F, | G,F, E,2 z2 F,G, | .^G,2 .A,2 .^F,2 .A,2 | E,4 z2 [A,C] z | %526
 [B,D]4 [CE]4 | [DF]4 .[CE^G].[D^F] z2 | EDEC DCDB, |{/A,} A4 z2 (3E^F^G | A4{/E^F^G} A4 | %531
{/E^F^G} A4 z2 CD | .E.D .^C2 .D.C .B,2 | ^C4 z2 [E,G,] z | z4 [A,=CF]4 | F4 [A,C^F]4 | %536
 z4 [A,C^G]4 | =F2 z2 [^F,E^F] z [^G,^G] z |{/[A,^D]} (9:8:9A/B/A/B/A/B/A/B/A/ [^G,^G] z [A,A] z | %539
{/=G,} (9:8:9=G/A/G/A/G/A/G/A/G/ [^F,^F] z [G,G] z | %540
{/^F,} (9:8:9^F/G/F/G/F/G/F/G/F/ [^E,^E] z [F,F] z | %541
{/=F,} (9:8:9F/_G/F/G/F/G/F/G/F/ [=E,=E] z [F,A,^CF] z |!ff! [A,D^F]4 [D=F^G]4 | %543
 [=CEA][CE^G][CEA] z z2 ^C z |{/^F,} D4{/G,} D4 |{/A,} =F4 z4 |{/^F,} [A,D]4 [G,D]4 | %547
 [=A,D]4 z2 E2 | [B,^D]4 .[E,B,] z .^C z | B,4 z2 B, z | .E,2 .D2 .^C2 .B,2 | %551
{/=F,} [A,=C] z z2 z2 D2 | [G,B,D] z z2 z4 | [^F,B,^D^F] z z2 z4 | %554
[K:treble] [^G,B,E^G] z z2 [^A,^C^F^A] z z2 |{/[^D^F]} B4 B4 | [_E=G_B] z z2 z4 | %557
{/=D} [G=B]4 [GB]2 [DGB] z | [_E_Ac]4 [=Ac]4 | [GB][GB][GB] z z2[K:bass] .[D,D]2 | %560
 .^C2 .B,2 ._B, z z2 | z2 ^C z D4 | F,2 .F.E .F z ^D2 | E z ^D z E3 z | %564
 [A,E]2 .[CE].[B,=D] .[A,C].[G,B,].[F,A,].[E,G,] | F, z[K:treble] [A,A] z [_B,_B] z G2 | %566
 z2 [Dd] z [^D^d] z D z | .e.^de z .c.B.c z | .A.^G.A z z2 [E^A]2 | [FB] z z2 z2 [E^G] z | %570
 [FA]2 A z z2 [^D^F]2 | [E=G] z z2 z2 [_A,C][_B,D] | [C_E]2 c z[K:bass] z ^F,G,=A, | %573
 B,2 E z z E,=F,G, | A,2 F z z2 GA | [FA]^G[EA]D [CF]E[B,^D][A,E] | A,8 | %577
 z4 z2[K:treble] [E^F^G]A | C8 | z4 z2 [^Fc^d]e | [C^DA]4 z2{/B} [D^FA]^G | [C=F]4 [=CE]4 | %582
[K:bass] [A,C^D^F]8 | [_A,_B,=D=F]8 |[K:treble] z4 z2 ^ga | d4 z2 ef | =gf e2 z2 ^c_B | %587
 A2 =cA F2 z{/^G} F | A,4 z2[K:bass] D,E, |{/F,} A,4 z2 FE | %590
 F2 DE F/4G/4F/4G/4F/4G/4F/4G/4 F/4G/4F/4G/4F/4G/4F/4G/4 | _A_BAG ^F z _B,C | ^CDCD =B,=CB,^C | %593
 =A,_B,A,B, z2 =B,2 | C z _B, z _A, z G,2 | D z C z _B, =B,,[C,=A,]D, | _E,D,C,_B,, z4 | %597
{/^C} .D2 .D2 .D2 A,2 | _B, z A,B, =E z ^DE | _D4 z2 _B,C | .=D2 .^C2 .D2 ._B,2 | z D/ z/ D4 =GF | %602
 ED^CD =B,A,^G,A, | D=C=B,C z2 CD | ._E2 GE .D2 FD | z G/ z/ G4 z2 | z G/ z/ G4 z2 | %607
 F z .=E2 .D2 ^GA | D4 z4 |[K:treble] ^^F^G=Bc FG^AB | ^G=AA_B ^A=B^G=A | %611
 [F_B]4- [FB][E=A][FB][EA] | [F_B][E=A][FB][EA] [FB][EA][FB][EA] | B4 [DF_A]3 [^CEG] | %614
[K:bass] [B,DF]3 [^A,^CE] [^G,B,D]3 [=G,_B,^C] | [_A,=B,=F]8 | [DF^G]8 | [CE][CE][CE] z z2 B,,C, | %618
 D,C, B,,2 z2 C,E, | ^G,2 =G,2 ^F,2 =F,2 | E,4 z4 | A,2 CA, G,2 _B,G, | F,4- F,D_B,C | %623
{/F} _EDE z{/F} EDE z |{/F} _ED E3 z z2 | .F,.A,.D z .A,.C z2 | .F,._A,._D z .=A,.^C z2 | _A,8 | %628
 z8 | .[CE].[CE] .[CE]2 z2 .E2 | .[B,DG].[B,D^F] .[B,DG]2 z2 .E2 | %631
 .[A,C=F].[A,CE] .[A,CF]2 .[A,C_E].[A,CD] .[A,CE]2 | .[=E,A,C].[A,B,] .[A,C]2 .C,.B,,.A,,.G,, | %633
 G,4 [_B,,_B,]4 | .[D,D]2 .[=E,=E]2 .[F,F]2 .[G,G].[A,A] | [_B,_B]4{/A,} [G,_E]4 | %636
{/_E,} [_B,,_B,]6 z2 | _B,2 G,=E, A,2 _G,_E, | _A,2 F,_D, =G,2 =E,^C, | [_A,_D=F]8 | %640
 [=DF]6!fff! ^DE | A,4 z2 B,C | DC B,2 z2 B,C | DC B,2 z2 EF | B,4 z2 CD | ED C2 z2 CD | %646
 ED C2 DC B,2 |[K:treble] [^FA]4 [E^G] z z2 | z2 .^G.A D4 | z2 .^C.D G,4 | [^FA]4 [E^G] z _B,C | %651
 DC =B,2 z2 CD | ED C2 z2 ^CD | _ED ^C2 z2 D=C | _B,A,B,C DEFD | [FAc]4 [DFA]4 | [CEG]4 [_B,DF]4 | %657
 [CA]4 [A,^D^F]4 | [A,=F]4 [_B,D]4 | [EG_Be]4 [A,=CFA]4 |[K:bass] [^F,A,^D]4 ^G,4 | %661
 z2 B,C =DC B,2 | z2 B,C =DC B,2 | z2 B,C =DC B,2 | z4 z2 ^DE | =A,4 z2 =B,C | =DC =B,2 z2 CE | %667
 [E,A,C][E,A,C] [E,A,C] z z4 |] %668
V:7
 x2 | x8 | x8 | x8 | x8 | x8 | x8 | x8 | x8 | x8 | x8 | x8 | x8 | x8 | x8 | x8 | x8 | %17
[K:treble] x8 | x8 | x8 | x8 | x6 B,/4 z/4 A,/C/D/ | x8 |[K:bass] x8 | x8 | x8 | x8 | x8 | x8 | %29
[K:treble] x8 | x5[K:bass] x3 | x8 | x8 | x8 | x5 z E, z | G, z [=F,A,] z [E,G,A,] z [_B,D] z | %36
 x8 | x8 | x6[K:treble] x2 | x8 |[K:bass] x8 | x8 | x8 | x8 | A,4 z2 B,=C | x8 | %46
[K:treble] [CE]4 [B,D]4 | x8 | x8 | x8 | x8 | x8 | [A,D] z z2[K:bass] x4 | x8 | %54
[K:treble] [B,E] z z2 x4 | x8 | x4[K:bass] x4 | x8 | x8 | x4 C2 x2 |[K:treble] x8 | x8 | x8 | %63
 x4 z A,EC | x8 | x8 | x8 | x8 | x4[K:bass] x4 | x8 | x8 | x8 | x4 A,4 | x4 z2 B,2 | x8 | x8 | x8 | %77
 F_E[_A,_D] z x4 | x6 D z |[K:F] x8 | x8 | x8 | x8 | x8 | x8 | x8 | x8 | x8 | x8 | x8 | x8 | x8 | %92
 x8 | x8 | x8 | x8 | x8 | x8 | x8 | x8 | x8 | x8 | x8 | x8 | x8 | x8 | x8 | x8 | x8 |[M:2/4] x4 | %110
 x4 | x4 | x4 | x4 | x4 | x4 | x4 | x4 | x4 | x4 | x4 | x4 | x4 | x4 | x4 | x4 | x4 | x4 | x4 | %129
 x4 | x4 | x4 | x4 | x4 | x4 | x4 | x4 | x4 | x4 | x4 | z [_DF] z _E | z _D z _A, | x4 | x4 | x4 | %145
 x4 | x2 z .C | x4 | x4 | x4 | x4 | x4 | x4 | x4 | x4 | x4 | x4 | x4 | x2[K:treble] x2 | x4 | x4 | %161
 x4 |[K:bass] x4 | x4 | x4 | x4 | x[K:treble] x3 | x4 | x2 ^F=G | x4 |[K:bass] x4 | x4 | x4 | x4 | %174
 x4 |[K:treble] x4 | x4 | x4 |[K:bass] x4 | x4 |[K:Cb][M:4/4][K:treble] E8 | x8 | E=FDE CD__B,C | %183
 x8 | x8 | x8 | x8 | x8 | (3.D2 .C2 .B,2 x4 | (3.E2 .F2 .=D2 x4 | (3.E2 .D2 .=C2 x4 | %191
 (3.=F2 .G2 .=E2 F[K:bass] z x2 | x8 | x8 | x8 | x8 | x8 | [^F,^A,]4 z4 |[K:C] x8 | x8 | x8 | x8 | %202
 x8 | x8 | x8 | x8 | x8 | x8 | x8 || x8 | x8 | x8 | x8 | x8 | x8 | x8 | x8 | x8 | x8 | x8 | x8 | %221
 x8 | x8 | x8 | x8 | x8 |[K:treble] z4 z2 ^GA | D6 z2 |[K:bass] x8 | x8 | x8 | x8 | x8 | x8 | x8 | %235
[K:treble] x8 | x8 | x4[K:bass] x4 | x8 | F, z G,3 x3 |[K:treble] x8 |[K:bass] x8 | %242
 ^F,=G,A,B, A,4 | x8 |[K:treble] .D2 .C.D ._B,2 ._A,.=B, |[K:bass] ._G,2 .F,.G, z4 | x8 | %247
 E,2 z2 z2 _B,2 | =A,2 z2 _G,2 z2 | x8 | x8 | x8 | x8 | x8 | x8 | x8 | x8 | x8 |[K:treble] x8 | %259
 x8 | x8 | x8 ||[M:2/4][K:bass] x4 | x4 | C/D/C/D/ B,/C/B,/C/ | A,/B,/A,/B,/ G,/A,/G,/A,/ | x4 | %267
 x4 | ^G,/A,,/G, A,/A,,/A, | _B,E, E,2 | x4 | x4 | x4 | x4 | x4 | x2 A,2 | x2 F,2 | x2 G,2 | x4 | %279
 x4 | x4 | x4 | x4 |[K:treble] _D z _E z | x4 | x4 |[K:bass] x4 | x4 | x4 | [^G,^B,]4 | ^C2 D2 | %291
 =G,2- =G,2 | x4 | x4 | _B,2 ^G,2 | x4 | ^D,A,, E,A,, | F,A,, ^F,A,, | .G,.A,, .^G,.A,, | x4 | x4 | %301
 x4 | x4 | x4 | x4 | x4 | x4 | x4 | x4 | x4 | x4 ||[M:4/4] x8 | x8 | x8 | x8 | x8 | x8 | x8 | x8 | %319
 x8 ||[K:Ab] z2 E,4 .F,.G, | __B,_CDE D4 | =CA A z _B,_G G z | z2 A,3 _F,_G,=G, | %324
 (3A,/B,/A,/G, A,_F (3_G,/A,/G,/=F, =G,E | z2 z D/ z/ D2 _C__B, | A,3 =C =G,=A,=B,^C | _F6 x2 | %328
 x8 | x8 | x8 | x8 | x8 | x8 | x8 | B,D _G2 A,_C F2 | _G,B, E2 =F,A, D2 | x8 |[K:treble] x8 | x8 | %340
 x8 | x8 | x8 | x8 | x8 | x8 | x8 ||[K:D] x8 |[K:bass] x8 | x8 | z4 G4 | =F4 _E4 | x8 | x8 | x8 | %355
 x8 |[K:treble] x8 | x8 | x8 | x8 | B8 | A2 G2 F2 G2 |[K:bass] x8 | B,2 A,2 ^G,2 A,2 | x8 | x8 | %366
 x8 | x8 | x8 | x8 | D8- | D2 C2 B,2 C2 | x8 | x8 | x8 | x8 | x8 | x8 |[K:treble] G4 A4 | B4 c4 | %380
[K:bass] F8- | F4 E4 | x8 | x8 | x8 | x8 | x8 | x8 | B,4 A,4 | ^G,4 A,4- | A,8 | x8 | x8 | x8 | %394
 x8 | x8 | x8 | F2 E2 ^D2 E2 | x8 | =B,8 | x8 | x8 | x8 | x8 |[K:treble] x8 | x8 | x8 | x8 | x8 | %409
 x8 |[K:bass] x8 | x8 | x8 | x8 | x8 | x8 | x8 | x8 | x8 | x8 | x8 | x8 | x8 | x8 | x8 | x8 | x8 | %427
 x8 | x8 | x8 | C4 B,4 | ^A,4 B,4 | x8 | x8 | x8 | x8 | x8 | x8 | _B,8- | B,8- | B,8 | %441
 =C2 _B,2 =A,2 B,2 | x8 | x8 | x8 | x8 | x8 | x3/2[K:treble] x13/2 | x8 | x8 |[K:bass] x8 | x8 | %452
 x8 | _B,2 A,2 G,2 A,2 | x8 | x8 | x8 | x3[K:treble] x5 | x8 | x8 | x8 | x8 | %462
[K:bass] [G,,_B,,D,G,]8 | x8 | [G,_B,D]4 [=F,A,]4 | ._E,.D, E,2 z2 [G,_B,D] z | x8 | %467
 .A,,.G,, A,,2 x4 | =F,.=E, .[F,_A,]2 ._G,2 ._F,2 | x8 | x8 | x8 | x6[K:treble] x2 | B8- | B8- | %475
 B8 | =G4 z4 | x8 | =F6 E2 | .D2 .=C2 [_B,D]4 | x8 | x8 | x8 | x8 | x8 | x8 |[K:bass] x8 | x8 | %488
 x8 | x8 | x8 | x8 | x8 | x8 | x8 | x8 | x8 | x8 | x8 | x4 G,4 | x8 | x8 | x4 E,4 | x8 | G,4 x4 | %505
 x8 | x8 | x8 | x8 | x8 | x8 | x8 | x8 | x8 | x8 | x8 | x8 | x8 | x8 | x8 | x8 | x8 |[K:C] x8 | %523
 x8 | x8 | x8 | DCDB, CB,CA, | B,E,/ z/ E,4 z2 | .[CE]2 .D2 .C2 .B,.A, | x8 | x8 | x8 | x8 | x8 | %534
 x8 | x8 | x8 | x8 | x8 | x8 | x8 | x8 | x8 | x8 | x8 | x8 | x8 | x8 | x8 | x8 | B,4{/^E,} ^C4 | %551
 x8 | x8 | x8 |[K:treble] x8 | x8 | x8 | x8 | x8 | x6[K:bass] x2 | x8 | x8 | x8 | z4 z2 G, z | x8 | %565
 x2[K:treble] x2 .G.A .^C z | .A.^G .A2 x4 | x8 | x8 | x8 | x8 | x8 | x4[K:bass] x4 | x8 | x8 | %575
 x8 | x8 | x5[K:treble] x3 | x8 | x8 | x8 | z2 =G^F G z F^E |[K:bass] x8 | x8 |[K:treble] x8 | x8 | %586
 x8 | x8 | x5[K:bass] x3 | x8 | x8 | x8 | x8 | x8 | x8 | x8 | x8 | x8 | G,4 _B,4 | x8 | x8 | x8 | %602
 x8 | x8 | x8 | x8 | x8 | x8 | x8 |[K:treble] D2 z2 D2 z2 | D2 z2 D2 z2 | x8 | x8 | x8 | %614
[K:bass] x8 | x8 | x8 | x8 | x8 | x8 | x8 | x8 | x8 | [G,_B,]4 [G,B,]4 | [G,_B,]4 G,3 A, | x8 | %626
 x8 | x8 | x8 | x8 | x8 | x8 | x8 | x8 | x8 | x8 | x8 | x8 | x8 | x8 | x8 | x8 | x8 | x8 | x8 | %645
 x8 | x8 |[K:treble] x8 | x8 | x8 | x8 | x8 | x8 | x8 | x8 | x8 | x8 | x8 | x8 | x8 | %660
[K:bass] x4 E,=F,^D,E, | z4 z2 ^D,E, | z4 z2 ^D,E, | z4 z2 ^D,E, | x8 | F,6 z2 | [=D,^G,]6 z2 | %667
 x8 |] %668
V:8
 x2 | x8 | x8 | x8 | x8 | x8 | x8 | x8 | x8 | x8 | x8 | x8 | x8 | x8 | x8 | x8 | x8 | %17
[K:treble] x8 | x8 | x8 | x8 | x8 | x8 |[K:bass] x8 | x8 | x8 | x8 | x8 | x8 |[K:treble] x8 | %30
 x5[K:bass] x3 | x8 | x8 | x8 | x8 | x8 | x8 | x8 | x6[K:treble] x2 | x8 |[K:bass] x8 | x8 | x8 | %43
 x8 | x8 | x8 |[K:treble] x8 | x8 | x8 | x8 | x8 | x8 | x4[K:bass] x4 | x8 |[K:treble] x8 | x8 | %56
 x4[K:bass] x4 | x8 | x8 | x8 |[K:treble] x8 | x8 | x8 | x8 | x8 | x8 | x8 | x8 | x4[K:bass] x4 | %69
 x8 | x8 | x8 | x8 | x8 | x8 | x8 | x8 | x8 | x8 |[K:F] x8 | x8 | x8 | x8 | x8 | x8 | x8 | x8 | %87
 x8 | x8 | x8 | x8 | x8 | x8 | x8 | x8 | x8 | x8 | x8 | x8 | x8 | x8 | x8 | x8 | x8 | x8 | x8 | %106
 x8 | x8 | x8 |[M:2/4] x4 | x4 | x4 | x4 | x4 | x4 | x4 | x4 | x4 | x4 | x4 | x4 | x4 | x4 | x4 | %124
 x4 | x4 | x4 | x4 | x4 | x4 | x4 | x4 | x4 | x4 | x4 | x4 | x4 | x4 | x4 | x4 | x4 | x4 | x4 | %143
 x4 | x4 | x4 | x4 | x4 | x4 | x4 | x4 | x4 | x4 | x4 | x4 | x4 | x4 | x4 | x2[K:treble] x2 | x4 | %160
 x4 | x4 |[K:bass] x4 | x4 | x4 | x4 | x[K:treble] x3 | x4 | x4 | x4 |[K:bass] x4 | x4 | x4 | x4 | %174
 x4 |[K:treble] x4 | x4 | x4 |[K:bass] x4 | x4 |[K:Cb][M:4/4][K:treble] x8 | x8 | x8 | x8 | x8 | %185
 x8 | x8 | x8 | x8 | x8 | x8 | x5[K:bass] x3 | x8 | x8 | x8 | x8 | x8 | x8 |[K:C] x8 | x8 | x8 | %201
 x8 | x8 | x8 | x8 | x8 | x8 | x8 | x8 || x8 | x8 | x8 | x8 | x8 | x8 | x8 | x8 | x8 | x8 | x8 | %220
 x8 | x8 | x8 | x8 | x8 | x8 |[K:treble] x8 | x8 |[K:bass] x8 | x8 | x8 | x8 | x8 | x8 | x8 | %235
[K:treble] x8 | x8 | x4[K:bass] x4 | x8 | x8 |[K:treble] x8 |[K:bass] x8 | x8 | x8 |[K:treble] x8 | %245
[K:bass] x8 | x8 | x8 | x8 | x8 | x8 | x8 | x8 | x8 | x8 | x8 | x8 | x8 |[K:treble] x8 | x8 | x8 | %261
 x8 ||[M:2/4][K:bass] x4 | x4 | x4 | x4 | x4 | x4 | x4 | x4 | x4 | x4 | x4 | x4 | x4 | x4 | x4 | %277
 x4 | x4 | x4 | x4 | x4 | x4 |[K:treble] x4 | x4 | x4 |[K:bass] x4 | x4 | x4 | x4 | x4 | x4 | x4 | %293
 x4 | x4 | x4 | x4 | x4 | x4 | x4 | x4 | x4 | x4 | x4 | x4 | x4 | x4 | x4 | x4 | x4 | x4 || %311
[M:4/4] x8 | x8 | x8 | x8 | x8 | x8 | x8 | x8 | x8 ||[K:Ab] x8 | x8 | x8 | x8 | x8 | x8 | x8 | x8 | %328
 x8 | x8 | x8 | x8 | x8 | x8 | x8 | x8 | x8 | x8 |[K:treble] x8 | x8 | x8 | x8 | x8 | x8 | x8 | %345
 x8 | x8 ||[K:D] x8 |[K:bass] x8 | x8 | x8 | x8 | x8 | x8 | x8 | x8 |[K:treble] x8 | x8 | x8 | x8 | %360
 x8 | x8 |[K:bass] x8 | x8 | x8 | x8 | x8 | x8 | x8 | x8 | A,8- | A,8 | x8 | x8 | x8 | x8 | x8 | %377
 x8 |[K:treble] x8 | A8 |[K:bass] x8 | x8 | x8 | x8 | x8 | x8 | x8 | x8 | x8 | x8 | x8 | x8 | x8 | %393
 x8 | x8 | x8 | x8 | x8 | x8 | x8 | x8 | x8 | x8 | x8 |[K:treble] x8 | x8 | x8 | x8 | x8 | x8 | %410
[K:bass] x8 | x8 | x8 | x8 | x8 | x8 | x8 | x8 | x8 | x8 | x8 | x8 | x8 | x8 | x8 | x8 | x8 | x8 | %428
 x8 | x8 | x8 | x8 | x8 | x8 | x8 | x8 | x8 | x8 | x8 | x8 | x8 | x8 | x8 | x8 | x8 | x8 | x8 | %447
 x3/2[K:treble] x13/2 | x8 | x8 |[K:bass] x8 | x8 | x8 | x8 | x8 | x8 | x8 | x3[K:treble] x5 | x8 | %459
 x8 | x8 | x8 |[K:bass] x8 | x8 | x8 | _B,,4 x4 | x8 | x8 | x8 | x8 | x8 | x8 | x6[K:treble] x2 | %473
 x8 | x8 | x8 | x8 | x8 | x8 | x8 | x8 | x8 | x8 | x8 | x8 | x8 |[K:bass] x8 | x8 | x8 | x8 | x8 | %491
 x8 | x8 | x8 | x8 | x8 | x8 | x8 | x8 | x8 | x8 | x8 | x8 | x8 | x8 | x8 | x8 | x8 | x8 | x8 | %510
 x8 | x8 | x8 | x8 | x8 | x8 | x8 | x8 | x8 | x8 | x8 | x8 |[K:C] x8 | x8 | x8 | x8 | x8 | x8 | %528
 x8 | x8 | x8 | x8 | x8 | x8 | x8 | x8 | x8 | x8 | x8 | x8 | x8 | x8 | x8 | x8 | x8 | x8 | x8 | %547
 x8 | x8 | x8 | x8 | x8 | x8 | x8 |[K:treble] x8 | x8 | x8 | x8 | x8 | x6[K:bass] x2 | x8 | x8 | %562
 x8 | x8 | x8 | x2[K:treble] x6 | x8 | x8 | x8 | x8 | x8 | x8 | x4[K:bass] x4 | x8 | x8 | x8 | x8 | %577
 x5[K:treble] x3 | x8 | x8 | x8 | x8 |[K:bass] x8 | x8 |[K:treble] x8 | x8 | x8 | x8 | %588
 x5[K:bass] x3 | x8 | x8 | x8 | x8 | x8 | x8 | x8 | x8 | x8 | x8 | x8 | x8 | x8 | x8 | x8 | x8 | %605
 x8 | x8 | x8 | x8 |[K:treble] x8 | x8 | x8 | x8 | x8 |[K:bass] x8 | x8 | x8 | x8 | x8 | x8 | x8 | %621
 x8 | x8 | x8 | x8 | x8 | x8 | x8 | x8 | x8 | x8 | x8 | x8 | x8 | x8 | x8 | x8 | x8 | x8 | x8 | %640
 x8 | x8 | x8 | x8 | x8 | x8 | x8 |[K:treble] x8 | x8 | x8 | x8 | x8 | x8 | x8 | x8 | x8 | x8 | %657
 x8 | x8 | x8 |[K:bass] x8 | x8 | x8 | x8 | x8 | x8 | x8 | x8 |] %668
V:9
!f! z2 | z4!ff! z2 ^C,,^D,, | E,,^D,, ^C,,2 z4 | z4 z2 =C, z | .B,,4 ._A,,4 | z8 | _D,4 _B,, z z2 | %7
 z2 =A,,3 E,,=F,,=D,, | E,, z A,,, z z2 ^G,,^F,, | E,, z D,, z C,, z B,,, z | A,,,4 z4 | E,4 E,4 | %12
 E,E, E, z z2 E,2 | [A,,E,] z [A,,E,] z [A,,E,] z [A,,E,] z | [A,,E,]4 z4 | %15
 [F,A,]4 [E,G,] z [D,F,] z | [A,,C,] z [G,,B,,] z [^F,,A,,] z z2 | [G,B,]4 [^F,A,] z [E,G,] z | %18
 [^C,E,] z [B,,D,] z [^A,,=C,] z z z | [D,^F,]4 z4 | [=A,,E,=A,]4 z4 | [G,D]4 [F,C]4 | %22
 [E,B,]4!f! z4 | _A,,,2 G,,, z z2 B,,, z | F,,2 =A,,, z z2 B,,,2 | C,, z B,,, z C,, z ^F,, z | %26
 G,,2 G,,, z z2 E,,2 | .=F,,2 .[G,,,G,,]2 .^C,,2 .[G,,,G,,]2 | z2 .[G,,,G,,]2 .^D,,2 .[G,,,G,,]2 | %29
 z2 .[G,,,G,,]2 .^F,,2 .[G,,,G,,]2 | .G,,2 .G,,,2 .^C,,2 .[G,,,G,,]2 | z2 .G,,,2 .=D,,2 .G,,,2 | %32
 z2 .G,,,2 .^D,,2 .G,,,2 | .E,,2 .G,,,2 .C,2 .G,,,2 | z2 .[G,,,G,,]2 .[C,,C,]2 z2 | z4 z2 G, z | %36
 F, z E, z D, z z2 | z4 z2!ff! z D,, | E,,2 F,, z z2 D,, z | E,,2 F,, z z2 D,, z | %40
 E,,2 F,, z z2 .D,,.E,, | F,,2 A,, z z2 B,,^C, | ^D,4 z2 B,,^C, | ^D, z B,,^C, D, z [B,,B,][C,^C] | %44
 z2{/^D,} E, z (3.[=D,=D]2 .[=C,=C]2 .[B,,B,]2 | [A,,A,] z [E,,E,] z z2 [A,,A,][B,,B,] | %46
 .C,2 .A,,2 .D,2 .A,,2 | .E,2 .A,,2!f! z2 A,^G, | .^F,2 .E,2 .D,2 .C,2 | B,,4 z2 E,^F, | %50
 ^G,A,G,A, =F,A,F,A, | E,4 D, z E, z | F,4 [D,F,B,] z z2 | [C,E,] z z2 [A,,C,E,] z ^F, z | %54
 G,3 A,/G,/ [E,^F,] z G, z | [D,^F,] z2 z [^C,F,A,] z z2 |!fff! B,,,4!f! [^D,^D] z [E,E] z | %57
!fff! C,,4 z4 |!fff! B,,,4!f! [F,F] z [^F,^F] z |!fff! ^D,,4 z4 |!ff! A,4 ^G, z A, z | %61
{/A,} G,4 ^F,[B,,^D,A,][B,,D,A,][B,,D,A,] | [B,,^D,=F,A,]4 E,[E,A,C][E,A,C][E,A,C] | %63
 [E,A,C]4 ^D, z E, z |!ff! _D,4 _B,,4 | A,, z E,, z [A,,,A,,] z A,, z | %66
 .[G,,G,]2 .[F,,F,]2 .[E,,E,]2 .[C,,C,]2 | %67
{/[_B,D]} .[_B,,,_B,,]2 .[_A,,,_A,,]2 .[G,,,G,,]2 .[F,,,F,,]2 | [_E,,,_E,,]4 _A,,, z C,, z | %69
 F,,2 _E,, z D,, z _D,, z | C,,4 F,,4 | ^F,,2 =E,, z [D,,D,] z [^C,,^C,] z | %72
 .[=C,,=C,]2 .[B,,,B,,]2 .[A,,,A,,]2 ._E,,2 | .[B,,,B,,]2 .[A,,,A,,]2 .[G,,,G,,]2 ^G,,^F,, | %74
 .[E,,E,]2 .[D,,D,]2 .[C,,C,]2 .[B,,,B,,]2 | [A,,,A,,][^G,,,^G,,] [A,,,A,,] z z2 [B,,,B,,] z | %76
 [C,,C,]2 =G,, z z2 [A,,,A,,][B,,,B,,] | [_D,,_D,]2 _A,, z z2 [^G,,,^G,,][=A,,,=A,,] | %78
 [_B,,,_B,,] z z2 ^C, z F,,=G,, |[K:F] A,,4 D,4 | F,4 z2 D,2 | ^C, z _B,, z A,, z G,, z | %82
 F,,4 z2 E,F, | G,F, E, z z2 F,A, | D4 z ^G,A,B, | =B,CB,C z4 | z4 z2 [_B,,,_B,,][C,,C,] | %87
 D,,_E,,D,,E,, B,,,C,,B,,,C,, | ^C,,D,,C,,D,, z2 =C,,B,,, | _A,,,G,,,F,,,=E,,, F,,,G,,,A,,,F,,, | %90
 G,,,4 z _E,,F,,G,, | z4 z F,,=A,,B,, | z4 z _E,,D,,C,, | D,,F,, B,,2 z2 C,D, | %94
 B,,C,B,,C, _A,,B,,A,,B,, | G,,B,, _E,2 z D,C,B,, | _A,,_E,, C,,2 z B,,=A,,G,, | %97
 F,,=E,,F,, z2 D,,E,,F,, | ^G,,^^F,,G,, z2 A,,=G,,=F,, | E,,D,,^C,,=B,,, C,,D,,E,,C,, | %100
 D,,4 z2 E,,^F,, | G,, z =F,,G,, B,, z A,,B,, | D, z D, z D, z C,2 | B,,C,A,,B,, G,, z D,, z | %104
 _D,,_E,,F,,G,, _A,, z z2 | z4 E, z F, z | D,2 z2!mf! z2 .D,.E, | .F, z .E,.F, .D, z .^C,.D, | %108
 .=B,, z .^A,,.B,, .^G,, z .^^F,,.G,, |[M:2/4] .=F,,.E,,/.F,,/ .C,, z | ._D,,.C,,/.D,,/ ._A,,, z | %111
 z4 | z4 | z4 | z4 | C,_D,/C,/ _B,,C,/B,,/ | _A,,2 G,,2 | F,, z C,, z | _D,, z z2 | ^C,2 ^G,,2 | %120
 A,,2 z2 | z4 | .E,,.[A,,,A,,] .E,,.[A,,,A,,] | .=F,,.[A,,,A,,] .F,,.[A,,,A,,] | z4 | %125
 .A,,.E,, .A,,.E,, | A,,2 E,,2 | .A,,.E,, .A,,.E,, | z4 | z4 | z4 | z =F, =C,C, | _D,D, _A,,A,, | %133
 =A,,=E,, A,,E,, | A,,2 _A,,2 | G,,4 | G,4 | .C,/._D,/.C, ._B,,/.C,/.B,, | ._A,,.B,,/.A,,/ G,,2 | %139
 C,4 | _D,2 z2 | _D,[D,_F,] _A,,[A,,_E,] | __B,, z _A,, z | [=G,,_D,]4 | [_A,,_C,]4 | [_G,,_E,]4 | %146
 [=G,,B,,]2 [=C,,=C,]2 | z .F, z .F, | z .F, z .F, | ._G,,,.[F,,,F,,] .=G,,,.[F,,,F,,] | %150
 .=A,,,.[F,,,F,,] .B,,,.[F,,,F,,] | .C,,.[F,,,F,,] ._D,,.[F,,,F,,] | %152
 ._E,,.[F,,,F,,] .F,,.[F,,,G,,] | ._A,,.F,, .G,,.F,, | .F,,.F,, ._E,,.F,, | z4 | z4 | %157
 z .[A,^C] z .[E,=B,] | z4 |!f! D,2 [A,,A,]2 | .D.A, .D.A, | .D.A, .D.A, | %162
 .[D,,D,].[A,,,A,,] .D,,.A,,, | .D,,.A,,, .^C,,.A,,, | .D,,.A,,, .^C,,.A,,, | %165
 ._B,,,.A,,, .=B,,,.[A,,,A,,] | .[=C,,=C,].[^C,,^C,] .[D,,D,].[A,,,A,,] | z4 | z4 | _A,,4 | %170
 ^C,2 ^G,,2 | .=A,,.=E,, .A,,.E,, | z4 | z4 | G,,2 =A,,=B,, | .C,.=D,/.C,/ ._B,,.C,/.B,,/ | %176
 ._A,,.B,,/.A,,/ .G,,.A,,/.G,,/ | F,,2 C,,2 | D,,2 .[D,,D,].[E,,E,] | %179
 .=F,,.E,,/.F,,/ .G,,.F,,/.G,,/ |[K:Cb][M:4/4]!ff! z4 z2 .[B,,,B,,].[C,,C,] | %181
 (3.[D,,D,]2 .[C,,C,]2 .[B,,,B,,]2 (3z2 .[C,,C,]2 .[E,,E,]2 | %182
 (3.[=G,,=G,]2 .A,,2 .[=F,,=F,]2 (3.A,,2 .[_F,,_F,]2 .[A,,A,]2 | [E,,E,]4 z2 .[=F,,=F,].[=G,,=G,] | %184
 (3.[A,,A,]2 .[B,,B,]2 .[=G,,=G,]2 (3.[A,,A,]2 .[=F,,=F,]2 .[_G,,_G,]2 | %185
 [E,,E,][D,D]/ z/ [D,D]2 z2 C,D, | (3.=D,2 .E,2 .=C,2 (3._D,2 .B,,2 ._C,2 | %187
{/A,,} A,4 (3z2 B,,2 C,2 | (3.D,2 .C,2 .B,,2 z2 .C,.D, | (3.E,2 .F,2 .=D,2 E, z .C,._D, | %190
 (3.E,2 .D,2 .=C,2 z2 .D,.E, | z6!fff! (3.=F,2 .G,2 .=E,2 F, z z2 | B,,,4 z4 | C,,4 z4 | _D,,4 z4 | %195
 =D,,4 z4 | z8 | z8 |[K:C]!f! _D, z [C,C] z [=B,,=B,] z [_B,,_B,] z | %199
 [A,,A,] z [G,,G,] z [^F,,^F,] z [=F,,=F,] z | [E,,E,] z [_E,,_E,] z [D,,D,] z [_D,,_D,] z | %201
 [C,,C,] z [_B,,,_B,,] z [A,,,A,,] z [G,,,G,,] z | [F,,,F,,]2 A,,, z _B,,, z D,, z | %203
 G,,2 F,, z E,, z _E,, z | D,,2 ^F,, z G,, z =B,, z | =E,2 D, z ^C, z =C, z | %206
 _B,, z A,, z G,, z ^F,,=E,, | D,, z ^C,, z =B,,, z A,,, z | %208
 [_A,,,_A,,] z [G,,,G,,] z [^F,,,^F,,] z [E,,,E,,] z || %209
!mp! D,,,/4D,,/4D,,,/4D,,/4D,,,/4D,,/4D,,,/4D,,/4 D,,,/4D,,/4D,,,/4D,,/4D,,,/4D,,/4D,,,/4D,,/4 D,,,/4D,,/4D,,,/4D,,/4D,,,/4D,,/4D,,,/4D,,/4 D,,,/4D,,/4D,,,/4D,,/4D,,,/4D,,/4D,,,/4D,,/4 | %210
 D,,,/4D,,/4D,,,/4D,,/4D,,,/4D,,/4D,,,/4D,,/4 D,,,/4D,,/4D,,,/4D,,/4D,,,/4D,,/4D,,,/4D,,/4 D,,,/4D,,/4D,,,/4D,,/4D,,,/4D,,/4D,,,/4D,,/4 D,,,/4D,,/4D,,,/4D,,/4D,,,/4D,,/4D,,,/4D,,/4 | %211
 D,,,/4D,,/4D,,,/4D,,/4D,,,/4D,,/4D,,,/4D,,/4 D,,,/4D,,/4D,,,/4D,,/4D,,,/4D,,/4D,,,/4D,,/4 D,,,/4D,,/4D,,,/4D,,/4D,,,/4D,,/4D,,,/4D,,/4 D,,,/4D,,/4D,,,/4D,,/4D,,,/4D,,/4D,,,/4D,,/4 | %212
 D,,,/4D,,/4D,,,/4D,,/4D,,,/4D,,/4D,,,/4D,,/4 D,,,/4D,,/4D,,,/4D,,/4D,,,/4D,,/4D,,,/4D,,/4 D,,,/4D,,/4D,,,/4D,,/4D,,,/4D,,/4D,,,/4D,,/4 D,,,/4D,,/4D,,,/4D,,/4D,,,/4D,,/4D,,,/4D,,/4 | %213
 z8 | z8 | z8 |!f! z8 |{/G,,} F,,E,, F,,6 |{/F,,} E,,^D,, E,,2{/E,,} =D,,^C,, D,,2 | %219
{/D,,} C,,B,,, C,,2 z2 E,,2 | .D,,.E,,.C,,.D,, .B,,,.C,,.A,,,.B,,, | G,,,F,,/ z/ F,,4 A,, z | %222
 G,,2 .F,,.E,, .D,, z C,, z | B,,,4 z .F,,.E,,.D,, | .C,,.B,,, A,,,2 z ._E,,.D,,.C,, | %225
 ._B,,,.A,,, G,,,2 z .D,,.C,,.B,,, | [A,,,A,,]4 [G,,,G,,]4 | %227
!mp! D,,,/4D,,/4D,,,/4D,,/4D,,,/4D,,/4D,,,/4D,,/4 D,,,/4D,,/4D,,,/4D,,/4D,,,/4D,,/4D,,,/4D,,/4 D,,,/4D,,/4D,,,/4D,,/4D,,,/4D,,/4D,,,/4D,,/4 D,,,/4D,,/4D,,,/4D,,/4D,,,/4D,,/4D,,,/4D,,/4 | %228
 D,,,/4D,,/4D,,,/4D,,/4D,,,/4D,,/4D,,,/4D,,/4 D,,,/4D,,/4D,,,/4D,,/4D,,,/4D,,/4D,,,/4D,,/4 D,,,/4D,,/4D,,,/4D,,/4D,,,/4D,,/4D,,,/4D,,/4 D,,,/4D,,/4D,,,/4D,,/4D,,,/4D,,/4D,,,/4D,,/4 | %229
 D,,,/4D,,/4D,,,/4D,,/4D,,,/4D,,/4D,,,/4D,,/4 D,,,/4D,,/4D,,,/4D,,/4D,,,/4D,,/4D,,,/4D,,/4 D,,,/4D,,/4D,,,/4D,,/4D,,,/4D,,/4D,,,/4D,,/4 D,,,/4D,,/4D,,,/4D,,/4D,,,/4D,,/4D,,,/4D,,/4 | %230
 D,,,/4D,,/4D,,,/4D,,/4D,,,/4D,,/4D,,,/4D,,/4 D,,,/4D,,/4D,,,/4D,,/4D,,,/4D,,/4D,,,/4D,,/4 D,,,/4D,,/4D,,,/4D,,/4D,,,/4D,,/4D,,,/4D,,/4 D,,,/4D,,/4D,,,/4D,,/4D,,,/4D,,/4D,,,/4D,,/4 | %231
 z8 | z8 | z4!f! z2 D,,E,, | [A,,,A,,]6 [B,,,B,,][=C,,=C,] | %235
 [D,,D,][C,,C,] [B,,,B,,]2 C2 [C,,C,][E,,E,] | .[^G,,^G,]2 .[=G,,=G,]2 .[^F,,^F,]2 .[=F,,=F,]2 | %237
 [E,,E,]4 z2 [^C,,^C,] z | [F,,F,]3 [E,,E,] [F,,F,][D,,D,][F,,F,][=C,,=C,] | %239
 [F,,F,] z [_B,,,_B,,]4 [C,,C,][D,,D,] | .[E,,E,]2 .[D,,D,].[E,,E,] .[F,,F,]2 .[E,,E,].[F,,F,] | %241
 [G,,G,]4 z [E,,E,][^F,,^F,][^G,,^G,] | .[G,,G,]2 .[=F,,=F,]2 .[E,,E,]2 .[F,,F,].[E,,E,] | %243
 .[G,,G,]2 .[=F,,=F,]2 .[E,,E,]2 .[F,,F,].[E,,E,] | .[D,,D,]2 .C,.D, ._B,,2 ._A,,.B,, | %245
 ._G,,2 .F,,.G,, .[D,,D,]2 ._A,,.G,, | .F,,._E,,._D,, z z2 F,,2 | =E,,2 [_B,,,_B,,] z z2 B,,2 | %248
 =A,,2 [_B,,,_B,,]2 _G,,2 [B,,,B,,]2 | [F,,F,][_E,,_E,] [_D,,_D,]2 z2 =A,,,2 | %250
 =B,,,C,,B,,,C,, D,,=E,,D,,E,, | F,,E,, F,,2 z4 | z2!mf! G,, z _A,,4 | z2 ^C,, z D,,4 | %254
 z2 =A,, z _B,,4 | z2 D,, z _E,,4 | z2 =C, z ^G,,4 | z2 ^F, z _B,,4 | z8 | z8 | z8 |!f! z8 || %262
[M:2/4] .E,,.[A,,,A,,].^E,,.[A,,,A,,] | .^F,,.[A,,,A,,].=G,,.[A,,,A,,] | z .A,,, z .A,,, | %265
 z .A,,, z .A,,, | .D,,.[A,,,A,,].E,,.[A,,,A,,] | .^F,,.[A,,,A,,].G,,.[A,,,A,,] | z .A,,, z .A,,, | %269
 z .[A,,,A,,].E,,.[A,,,A,,] |!mf! z4 | z4 | z .A, z .A, | z .A, z .A, | z2 z .A,, | z .A,, z .A,, | %276
 z .[A,,,A,,] z .[A,,,A,,] | z .[A,,,A,,] z .[A,,,A,,] | .[C,,C,].[A,,,A,,].[^C,,^C,].[A,,,A,,] | %279
 .[D,,D,].[A,,,A,,].[E,,E,].[A,,,A,,] | z .[A,,,A,,] z .[A,,,A,,] | z .[A,,,A,,] z .[A,,,A,,] | %282
 z .A,, .C,.A,, | z4 | ._A,,._A, ._E,,._E, | ._F,, z z2 | z .=E,, z .=B,,, | z4 | z .A,, .A,,, z | %289
 z .A,, .A,,, z | ^E,2 ^F,2 | z .A,, A,,,2 | z .A, .A,,,.A, | z A,{/A,,,} A,,2 | D,2 _B,,2 | %295
 A,,2 z2 | .^D,,.A,,, .E,,.A,,, | .F,,.A,,, .^F,,.A,,, | .=G,,.A,,, .^G,,.A,,, | %299
 .A,,.B,,/.A,,/ .=G,,.A,,/.G,,/ | .^F,,.G,,/.F,,/ .E,,.F,,/.E,,/ | D,,2 z2 | D,,2 E,,2 | A,,4 | %304
 =F,4 | E,2 D,2 | z4 | z4 | A,,4 | F,4 | [E,E]2 [D,D]2 ||[M:4/4]!f! z4 z2 ^D,,E,, | %312
 ^F,,E,, ^D,,2 z2 E,,^G,, | ^B,,2 ^D,B,, A,,2 B,,A,, | ^^F,,6 ^B,,^D, | %315
 ^C,^B,,C,A,, =B,,A,,B,,^G,, | A,, z ^C,,3 ^D,,E,,^F,, | ^G,,B,,E,^D, =D,4 | %318
 ^C,2 E,C, B,,2 ^D,B,, | ^A,,4 =A,,^C,B,,A,, ||[K:Ab] A,,8 | _F,8 | E,4 D,4 | _C,4 z2 E, z | %324
 D, z _C, z B,, z A,, z | z8 | _G,2 ._F,.E, .D,2 .E,2 | _F,6 .[E,E]2 | %328
 [=D,=D]2 .[_D,_D].[_C,_C] .[B,,B,]2 .[A,,A,]2 | z8 | _F,,4 _G,,F,,E,,F,, | _G,, z B,,, z B,,4 | %332
 E,,4 z2 D,,E,, | =F,,3 _G,, A,,3 B,, | _C, z D,, z A,4 | z8 | z8 | %337
 E,F,_G,A,!mf! =A,/B,/A,/B,/ A,/B,/A,/B,/ |!f! z8 | z8 | z8 | z8 | z8 | z8 | z8 | z8 | z8 || %347
[K:D]!mp! z8 | [D,F,]8 | [D,=F,_A,]8 | [D,=A,]8 | [D,_B,]8 | z8 | z8 | %354
!p! !arpeggio!.[D,,A,,D,] z z2 z4 |!mp! z8 | z8 | z8 | [A,,E,G,]8- | [A,,E,G,]8 | z8 | z8 | z8 | %363
 z8 | %364
!pp! A,,,/4A,,/4A,,,/4A,,/4A,,,/4A,,/4A,,,/4A,,/4 A,,,/4A,,/4A,,,/4A,,/4A,,,/4A,,/4A,,,/4A,,/4 A,,,/4A,,/4A,,,/4A,,/4A,,,/4A,,/4A,,,/4A,,/4 A,,,/4A,,/4A,,,/4A,,/4A,,,/4A,,/4A,,,/4A,,/4 | %365
 A,,,/4A,,/4A,,,/4A,,/4A,,,/4A,,/4A,,,/4A,,/4 A,,,/4A,,/4A,,,/4A,,/4A,,,/4A,,/4A,,,/4A,,/4 A,,,/4A,,/4A,,,/4A,,/4A,,,/4A,,/4A,,,/4A,,/4 A,,,/4A,,/4A,,,/4A,,/4A,,,/4A,,/4A,,,/4A,,/4 | %366
 A,,,/4A,,/4A,,,/4A,,/4A,,,/4A,,/4A,,,/4A,,/4 A,,,/4A,,/4A,,,/4A,,/4A,,,/4A,,/4A,,,/4A,,/4 A,,,/4A,,/4A,,,/4A,,/4A,,,/4A,,/4A,,,/4A,,/4 A,,,/4A,,/4A,,,/4A,,/4A,,,/4A,,/4A,,,/4A,,/4 | %367
 A,,,/4A,,/4A,,,/4A,,/4A,,,/4A,,/4A,,,/4A,,/4 A,,,/4A,,/4A,,,/4A,,/4A,,,/4A,,/4A,,,/4A,,/4 A,,,/4A,,/4A,,,/4A,,/4A,,,/4A,,/4A,,,/4A,,/4 A,,,/4A,,/4A,,,/4A,,/4A,,,/4A,,/4A,,,/4A,,/4 | %368
 z8 | z8 | %370
 D,,/4A,,/4D,,/4A,,/4D,,/4A,,/4D,,/4A,,/4 D,,/4A,,/4D,,/4A,,/4D,,/4A,,/4D,,/4A,,/4 D,,/4A,,/4D,,/4A,,/4D,,/4A,,/4D,,/4A,,/4 D,,/4A,,/4D,,/4A,,/4D,,/4A,,/4D,,/4A,,/4 | %371
 A,,,/4A,,/4A,,,/4A,,/4A,,,/4A,,/4A,,,/4A,,/4 A,,,/4A,,/4A,,,/4A,,/4A,,,/4A,,/4A,,,/4A,,/4 A,,,/4A,,/4A,,,/4A,,/4A,,,/4A,,/4A,,,/4A,,/4 A,,,/4A,,/4A,,,/4A,,/4A,,,/4A,,/4A,,,/4A,,/4 | %372
 z8 | z8 | z8 | z8 | %376
!p! D,,,/4D,,/4D,,,/4D,,/4D,,,/4D,,/4D,,,/4D,,/4 D,,,/4D,,/4D,,,/4D,,/4D,,,/4D,,/4D,,,/4D,,/4 D,,,/4D,,/4D,,,/4D,,/4D,,,/4D,,/4D,,,/4D,,/4 D,,,/4D,,/4D,,,/4D,,/4D,,,/4D,,/4D,,,/4D,,/4 | %377
 D,,,/4D,,/4D,,,/4D,,/4D,,,/4D,,/4D,,,/4D,,/4 D,,,/4D,,/4D,,,/4D,,/4D,,,/4D,,/4D,,,/4D,,/4 D,,,/4D,,/4D,,,/4D,,/4D,,,/4D,,/4D,,,/4D,,/4 D,,,/4D,,/4D,,,/4D,,/4D,,,/4D,,/4D,,,/4D,,/4 | %378
 D,,,/4D,,/4D,,,/4D,,/4D,,,/4D,,/4D,,,/4D,,/4 D,,,/4D,,/4D,,,/4D,,/4D,,,/4D,,/4D,,,/4D,,/4 D,,,/4D,,/4D,,,/4D,,/4D,,,/4D,,/4D,,,/4D,,/4 D,,,/4D,,/4D,,,/4D,,/4D,,,/4D,,/4D,,,/4D,,/4 | %379
 D,,,/4D,,/4D,,,/4D,,/4D,,,/4D,,/4D,,,/4D,,/4 D,,,/4D,,/4D,,,/4D,,/4D,,,/4D,,/4D,,,/4D,,/4 D,,,/4D,,/4D,,,/4D,,/4D,,,/4D,,/4D,,,/4D,,/4 D,,,/4D,,/4D,,,/4D,,/4D,,,/4D,,/4D,,,/4D,,/4 | %380
!mf! [D,,D,]8 | [C,,C,]8 | [B,,,B,,]8 | [A,,,A,,]8 | [E,,E,]4 [D,,D,]4 | [C,,C,]4 [B,,,B,,]4 | %386
 D,,2 C,,2 B,,,2 C,,2 | E,,8 | %388
!p! F,,,/4F,,/4F,,,/4F,,/4F,,,/4F,,/4F,,,/4F,,/4 F,,,/4F,,/4F,,,/4F,,/4F,,,/4F,,/4F,,,/4F,,/4 F,,,/4F,,/4F,,,/4F,,/4F,,,/4F,,/4F,,,/4F,,/4 F,,,/4F,,/4F,,,/4F,,/4F,,,/4F,,/4F,,,/4F,,/4 | %389
 F,,,/4F,,/4F,,,/4F,,/4F,,,/4F,,/4F,,,/4F,,/4 F,,,/4F,,/4F,,,/4F,,/4F,,,/4F,,/4F,,,/4F,,/4 F,,,/4F,,/4F,,,/4F,,/4F,,,/4F,,/4F,,,/4F,,/4 F,,,/4F,,/4F,,,/4F,,/4F,,,/4F,,/4F,,,/4F,,/4 | %390
 F,,,/4F,,/4F,,,/4F,,/4F,,,/4F,,/4F,,,/4F,,/4 F,,,/4F,,/4F,,,/4F,,/4F,,,/4F,,/4F,,,/4F,,/4 F,,,/4F,,/4F,,,/4F,,/4F,,,/4F,,/4F,,,/4F,,/4 F,,,/4F,,/4F,,,/4F,,/4F,,,/4F,,/4F,,,/4F,,/4 | %391
 F,,,/4F,,/4F,,,/4F,,/4F,,,/4F,,/4F,,,/4F,,/4 F,,,/4F,,/4F,,,/4F,,/4F,,,/4F,,/4F,,,/4F,,/4 F,,,/4F,,/4F,,,/4F,,/4F,,,/4F,,/4F,,,/4F,,/4 F,,,/4F,,/4F,,,/4F,,/4F,,,/4F,,/4F,,,/4F,,/4 | %392
!mp! z8 | z8 | [D,,A,,]8- | [D,,A,,]8 | D,8- | D,8 | D,8- | D,8 | D,8- | D,8 | [D,,D,]8 | %403
 [=C,,=C,]8 | [B,,,B,,]8 | [E,,E,]8 | %406
!p! A,,,/4A,,/4A,,,/4A,,/4A,,,/4A,,/4A,,,/4A,,/4 A,,,/4A,,/4A,,,/4A,,/4A,,,/4A,,/4A,,,/4A,,/4 A,,,/4A,,/4A,,,/4A,,/4A,,,/4A,,/4A,,,/4A,,/4 A,,,/4A,,/4A,,,/4A,,/4A,,,/4A,,/4A,,,/4A,,/4 | %407
 A,,,/4A,,/4A,,,/4A,,/4A,,,/4A,,/4A,,,/4A,,/4 A,,,/4A,,/4A,,,/4A,,/4A,,,/4A,,/4A,,,/4A,,/4 A,,,/4A,,/4A,,,/4A,,/4A,,,/4A,,/4A,,,/4A,,/4 A,,,/4A,,/4A,,,/4A,,/4A,,,/4A,,/4A,,,/4A,,/4 | %408
 A,,,/4A,,/4A,,,/4A,,/4A,,,/4A,,/4A,,,/4A,,/4 A,,,/4A,,/4A,,,/4A,,/4A,,,/4A,,/4A,,,/4A,,/4 A,,,/4A,,/4A,,,/4A,,/4A,,,/4A,,/4A,,,/4A,,/4 A,,,/4A,,/4A,,,/4A,,/4A,,,/4A,,/4A,,,/4A,,/4 | %409
 A,,,/4A,,/4A,,,/4A,,/4A,,,/4A,,/4A,,,/4A,,/4 A,,,/4A,,/4A,,,/4A,,/4A,,,/4A,,/4A,,,/4A,,/4 A,,,/4A,,/4A,,,/4A,,/4A,,,/4A,,/4A,,,/4A,,/4 A,,,/4A,,/4A,,,/4A,,/4A,,,/4A,,/4A,,,/4A,,/4 | %410
 D,,/4D,/4D,,/4D,/4D,,/4D,/4D,,/4D,/4 D,,/4D,/4D,,/4D,/4D,,/4D,/4D,,/4D,/4 D,,/4D,/4D,,/4D,/4D,,/4D,/4D,,/4D,/4 D,,/4D,/4D,,/4D,/4D,,/4D,/4D,,/4D,/4 | %411
 D,,/4D,/4D,,/4D,/4D,,/4D,/4D,,/4D,/4 D,,/4D,/4D,,/4D,/4D,,/4D,/4D,,/4D,/4 D,,/4D,/4D,,/4D,/4D,,/4D,/4D,,/4D,/4 D,,/4D,/4D,,/4D,/4D,,/4D,/4D,,/4D,/4 | %412
 D,,/4D,/4D,,/4D,/4D,,/4D,/4D,,/4D,/4 D,,/4D,/4D,,/4D,/4D,,/4D,/4D,,/4D,/4 D,,/4D,/4D,,/4D,/4D,,/4D,/4D,,/4D,/4 D,,/4D,/4D,,/4D,/4D,,/4D,/4D,,/4D,/4 | %413
 D,,/4D,/4D,,/4D,/4D,,/4D,/4D,,/4D,/4 D,,/4D,/4D,,/4D,/4D,,/4D,/4D,,/4D,/4 D,,/4D,/4D,,/4D,/4D,,/4D,/4D,,/4D,/4 D,,/4D,/4D,,/4D,/4D,,/4D,/4D,,/4D,/4 | %414
!pp! D,,/4D,/4D,,/4D,/4D,,/4D,/4D,,/4D,/4 D,,/4D,/4D,,/4D,/4D,,/4D,/4D,,/4D,/4 D,,/4D,/4D,,/4D,/4D,,/4D,/4D,,/4D,/4 D,,/4D,/4D,,/4D,/4D,,/4D,/4D,,/4D,/4 | %415
 D,,/4D,/4D,,/4D,/4D,,/4D,/4D,,/4D,/4 D,,/4D,/4D,,/4D,/4D,,/4D,/4D,,/4D,/4 D,,/4D,/4D,,/4D,/4D,,/4D,/4D,,/4D,/4 D,,/4D,/4D,,/4D,/4D,,/4D,/4D,,/4D,/4 | %416
 D,,/4D,/4D,,/4D,/4D,,/4D,/4D,,/4D,/4 D,,/4D,/4D,,/4D,/4D,,/4D,/4D,,/4D,/4 D,,/4D,/4D,,/4D,/4D,,/4D,/4D,,/4D,/4 D,,/4D,/4D,,/4D,/4D,,/4D,/4D,,/4D,/4 | %417
 D,,/4D,/4D,,/4D,/4D,,/4D,/4D,,/4D,/4 D,,/4D,/4D,,/4D,/4D,,/4D,/4D,,/4D,/4 D,,/4D,/4D,,/4D,/4D,,/4D,/4D,,/4D,/4 D,,/4D,/4D,,/4D,/4D,,/4D,/4D,,/4D,/4 | %418
!p! A,,,/4A,,/4A,,,/4A,,/4A,,,/4A,,/4A,,,/4A,,/4 A,,,/4A,,/4A,,,/4A,,/4A,,,/4A,,/4A,,,/4A,,/4 A,,,/4A,,/4A,,,/4A,,/4A,,,/4A,,/4A,,,/4A,,/4 A,,,/4A,,/4A,,,/4A,,/4A,,,/4A,,/4A,,,/4A,,/4 | %419
 A,,,/4A,,/4A,,,/4A,,/4A,,,/4A,,/4A,,,/4A,,/4 A,,,/4A,,/4A,,,/4A,,/4A,,,/4A,,/4A,,,/4A,,/4 A,,,/4A,,/4A,,,/4A,,/4A,,,/4A,,/4A,,,/4A,,/4 A,,,/4A,,/4A,,,/4A,,/4A,,,/4A,,/4A,,,/4A,,/4 | %420
 A,,,/4A,,/4A,,,/4A,,/4A,,,/4A,,/4A,,,/4A,,/4 A,,,/4A,,/4A,,,/4A,,/4A,,,/4A,,/4A,,,/4A,,/4 A,,,/4A,,/4A,,,/4A,,/4A,,,/4A,,/4A,,,/4A,,/4 A,,,/4A,,/4A,,,/4A,,/4A,,,/4A,,/4A,,,/4A,,/4 | %421
 A,,,/4A,,/4A,,,/4A,,/4A,,,/4A,,/4A,,,/4A,,/4 A,,,/4A,,/4A,,,/4A,,/4A,,,/4A,,/4A,,,/4A,,/4 A,,,/4A,,/4A,,,/4A,,/4A,,,/4A,,/4A,,,/4A,,/4 A,,,/4A,,/4A,,,/4A,,/4A,,,/4A,,/4A,,,/4A,,/4 | %422
!mp! z8 | z8 | z8 | z8 | [D,,A,,]8- | [D,,A,,D,-]8 | D,8- | D,8 | [A,,,A,,]8 | [G,,G,]8 | A,,,8- | %433
 A,,,8- | A,,,2 z2 z4 | z8 | z8 | z8 | %438
!p!{/D,,} D,,,/4D,,/4D,,,/4D,,/4D,,,/4D,,/4D,,,/4D,,/4 D,,,/4D,,/4D,,,/4D,,/4D,,,/4D,,/4D,,,/4D,,/4 D,,,/4D,,/4D,,,/4D,,/4D,,,/4D,,/4D,,,/4D,,/4 D,,,/4D,,/4D,,,/4D,,/4D,,,/4D,,/4D,,,/4D,,/4 | %439
 D,,,/4D,,/4D,,,/4D,,/4D,,,/4D,,/4D,,,/4D,,/4 D,,,/4D,,/4D,,,/4D,,/4D,,,/4D,,/4D,,,/4D,,/4 D,,,/4D,,/4D,,,/4D,,/4D,,,/4D,,/4D,,,/4D,,/4 D,,,/4D,,/4D,,,/4D,,/4D,,,/4D,,/4D,,,/4D,,/4 | %440
 E,,/4D,,/4E,,/4D,,/4E,,/4D,,/4E,,/4D,,/4 E,,/4D,,/4E,,/4D,,/4E,,/4D,,/4E,,/4D,,/4 =F,,/4D,,/4F,,/4D,,/4F,,/4D,,/4F,,/4D,,/4 F,,/4D,,/4F,,/4D,,/4F,,/4D,,/4F,,/4D,,/4 | %441
 G,,/4D,,/4G,,/4D,,/4G,,/4D,,/4G,,/4D,,/4 G,,/4D,,/4G,,/4D,,/4G,,/4D,,/4G,,/4D,,/4 ^G,,/4D,,/4G,,/4D,,/4G,,/4D,,/4G,,/4D,,/4 G,,/4D,,/4G,,/4D,,/4G,,/4D,,/4G,,/4D,,/4 | %442
!mp! [A,,,D,,A,,]8- | [A,,,-D,,A,,]8 | A,,,4 z4 | z8 | z8 |!pp! A,,/^C,/_E,/=F,/ z2 z4 |!mp! z8 | %449
 z8 |!mp! _B,,8- | B,,8 | _B,,8- | B,,8 | z8 | z8 | z8 | %457
!pp! (5:4:5=E,,/^F,,/A,,/=B,,/^C,/ (5:4:5E,/F,/A,/B,/C/ z4 |!mp! z8 | z8 | z8 | z8 | %462
!p! z2 G,,,/4G,,/4G,,,/4G,,/4G,,,/4G,,/4G,,,/4G,,/4 G,,,/4G,,/4G,,,/4G,,/4G,,,/4G,,/4G,,,/4G,,/4 G,,,/4G,,/4G,,,/4G,,/4G,,,/4G,,/4G,,,/4G,,/4 | %463
 G,,,/4G,,/4G,,,/4G,,/4G,,,/4G,,/4G,,,/4G,,/4 G,,,/4G,,/4G,,,/4G,,/4G,,,/4G,,/4G,,,/4G,,/4 G,,,/4G,,/4G,,,/4G,,/4G,,,/4G,,/4G,,,/4G,,/4 G,,,/4G,,/4G,,,/4G,,/4G,,,/4G,,/4G,,,/4G,,/4 | %464
 .G,,.^F,, G,,/4G,,,/4G,,/4G,,,/4G,,/4G,,,/4G,,/4G,,,/4 G,,/4G,,,/4G,,/4G,,,/4G,,/4G,,,/4G,,/4G,,,/4 G,,/4G,,,/4G,,/4G,,,/4G,,/4G,,,/4G,,/4G,,,/4 | %465
{/G,,} G,,,/4G,,/4G,,,/4G,,/4G,,,/4G,,/4G,,,/4G,,/4 G,,,/4G,,/4G,,,/4G,,/4G,,,/4G,,/4G,,,/4G,,/4 G,,,/4G,,/4G,,,/4G,,/4G,,,/4G,,/4G,,,/4G,,/4 _B,, z | %466
!mp! .A,,2 .G,,2 .=F,,2 ._E,,2 | D,,4 z2!mp! ._E,2 | .D,2 .[=C,_E,]2 .[_B,,D,]2 .[_A,,_C,]2 | %469
 _G,,2 z2 z4 | z8 | z8 | z8 | z8 | z8 | z8 | z8 | z8 | z8 | %479
!p! (7:4:7=F,,G,,A,,_B,,=C,D,E, (5:4:5=F,/E,/F,/G,/A,/ B,/=C/D/E/ | z8 | z8 | z8 | z8 | %484
!mp! [B,,,F,,B,,]8- | [B,,,F,,B,,]8 | B,,8- | B,,8 | B,,8- | B,,8 | B,,8- | B,,8 | B,,8- | B,,8 | %494
!p! E,,,/4E,,/4E,,,/4E,,/4E,,,/4E,,/4E,,,/4E,,/4 E,,,/4E,,/4E,,,/4E,,/4E,,,/4E,,/4E,,,/4E,,/4 E,,,/4E,,/4E,,,/4E,,/4E,,,/4E,,/4E,,,/4E,,/4 E,,,/4E,,/4E,,,/4E,,/4E,,,/4E,,/4E,,,/4E,,/4 | %495
 E,,,/4E,,/4E,,,/4E,,/4E,,,/4E,,/4E,,,/4E,,/4 E,,,/4E,,/4E,,,/4E,,/4E,,,/4E,,/4E,,,/4E,,/4 E,,,/4E,,/4E,,,/4E,,/4E,,,/4E,,/4E,,,/4E,,/4 E,,,/4E,,/4E,,,/4E,,/4E,,,/4E,,/4E,,,/4E,,/4 | %496
 z8 | z8 | z8 | z8 | %500
 E,,,/4E,,/4E,,,/4E,,/4E,,,/4E,,/4E,,,/4E,,/4 E,,,/4E,,/4E,,,/4E,,/4E,,,/4E,,/4E,,,/4E,,/4 E,,,/4E,,/4E,,,/4E,,/4E,,,/4E,,/4E,,,/4E,,/4 E,,,/4E,,/4E,,,/4E,,/4E,,,/4E,,/4E,,,/4E,,/4 | %501
 E,,,/4E,,/4E,,,/4E,,/4E,,,/4E,,/4E,,,/4E,,/4 E,,,/4E,,/4E,,,/4E,,/4E,,,/4E,,/4E,,,/4E,,/4 E,,,/4E,,/4E,,,/4E,,/4E,,,/4E,,/4E,,,/4E,,/4 E,,,/4E,,/4E,,,/4E,,/4E,,,/4E,,/4E,,,/4E,,/4 | %502
 E,,,/4E,,/4E,,,/4E,,/4E,,,/4E,,/4E,,,/4E,,/4 E,,,/4E,,/4E,,,/4E,,/4E,,,/4E,,/4E,,,/4E,,/4 E,,,/4E,,/4E,,,/4E,,/4E,,,/4E,,/4E,,,/4E,,/4 E,,,/4E,,/4E,,,/4E,,/4E,,,/4E,,/4E,,,/4E,,/4 | %503
 E,,,/4E,,/4E,,,/4E,,/4E,,,/4E,,/4E,,,/4E,,/4 E,,,/4E,,/4E,,,/4E,,/4E,,,/4E,,/4E,,,/4E,,/4 E,,,/4E,,/4E,,,/4E,,/4E,,,/4E,,/4E,,,/4E,,/4 E,,,/4E,,/4E,,,/4E,,/4E,,,/4E,,/4E,,,/4E,,/4 | %504
 E,,,/4E,,/4E,,,/4E,,/4E,,,/4E,,/4E,,,/4E,,/4 E,,,/4E,,/4E,,,/4E,,/4E,,,/4E,,/4E,,,/4E,,/4 E,,,/4E,,/4E,,,/4E,,/4E,,,/4E,,/4E,,,/4E,,/4 E,,,/4E,,/4E,,,/4E,,/4E,,,/4E,,/4E,,,/4E,,/4 | %505
 E,,,/4E,,/4E,,,/4E,,/4E,,,/4E,,/4E,,,/4E,,/4 E,,,/4E,,/4E,,,/4E,,/4E,,,/4E,,/4E,,,/4E,,/4 E,,,/4E,,/4E,,,/4E,,/4E,,,/4E,,/4E,,,/4E,,/4 E,,,/4E,,/4E,,,/4E,,/4E,,,/4E,,/4E,,,/4E,,/4 | %506
!mf! z4 .=G, z .F,.G, | ^C,4 .G, z .F,.G, | [=F,,,=F,,]4 z4 | [=F,,,=F,,]4 z4 | %510
 [=F,,,=F,,]4 [=G,,,=G,,]4 | [_A,,,_A,,]4 [=F,,,=F,,] z z2 | .G,,,2 ._A,,,2 ._B,,,2 .=C,,2 | %513
 =D,,4 z2 G,,, z | ._A,,,2 ._B,,,2 .=C,,2 .D,,2 | _E,,4 z2 [G,,,G,,] z | %516
 [_A,,,_A,,]4 [_B,,,_B,,]4 | [=C,,=C,]4 z2 [=A,,,=A,,] z | [_B,,,_B,,]8- | [B,,,B,,]4 z2 _E,, z | %520
 [_B,,,_B,,]8- | [B,,,B,,]4 z2 ^G,,=A,, |[K:C]!f! D,,6 E,,F,, | G,,F,, E,,2 z2 F,,G,, | %524
 ^G,,A,,G,,A,, ^F,,A,,F,,A,, | E,,4 z2 E, z | E,4 E,4 | E,4 z2 .E,.E, | %528
 .E,2 .[E,B,]2 .[E,A,]2 .[A,,E,=G,].[A,,E,=F,] | .[A,,E,G,]2 .[A,,D,F,]2 .[A,,C,E,]2 z2 | %530
 [=F,A,D] z z2 [D,F,B,] z z2 | [C,E,A,] z z2 [A,,C,E,] z z2 | [G,B,] z z2 [E,G,B,] z z2 | %533
 [^C,E,^A,] z z2 z2 [=C,,_B,,] z | =F,,4 z4 | _E,,4 z4 | D,,4 z4 | ^C,,4 z4 | B,,,4 z4 | %539
 z4 z [B,,^D,A,][B,,D,A,][B,,D,A,] | [B,,^D,A,]4 z [^C,,A,,^C,][C,,A,,C,][C,,A,,C,] | %541
 [^C,,A,,^C,]4 z2 ^C, z |!ff! .D,2 .[^C,^C]2 .[B,,B,]2 .[_B,,_B,]2 | %543
 .[A,,A,]2 .[=G,,=G,]2 .[=F,,=F,]2 .[E,,E,]2 | .[D,,D,]2 .[^C,,^C,]2 .[B,,,B,,]2 .[A,,,A,,]2 | %545
 .[G,,,G,,]2 .[=F,,,=F,,]2 .[E,,,E,,]2 .[_E,,,_E,,]2 | %546
 .[D,,,D,,]2 .[^F,,,^F,,]2 .[G,,,G,,]2 .[^A,,,^A,,]2 | %547
 .[E,,E,] z .[D,,D,].[E,,E,] .[^C,,^C,] z .[=C,,=C,].[D,,D,] | %548
 .[B,,,B,,]2 .[^D,,^D,]2 .E,,2 .[^A,,,^A,,]2 | %549
 .[^C,,^C,] z .[B,,,B,,].[C,,C,] .[=A,,,=A,,] z .[=G,,,=G,,].[A,,,A,,] | z2 .D,2 .^C,2 .B,,2 | %551
 .A,,2 .[=G,,=G,]2 .[=F,,=F,]2 .[D,,D,]2 | .[G,,D,]2 .[E,,E,]2 .[D,,D,]2 .[=C,,=C,]2 | %553
 .[B,,,B,,]2 .[^A,,,^A,,]2 .[^G,,,^G,,]2 .[^F,,,^F,,]2 | %554
 [E,,,E,,]2 [^F,,,^F,,] z .[^G,,,^G,,]2 .[^A,,,^A,,]2 | [B,,,B,,]4 [^C,,^C,] z [=D,,=D,] z | %556
 [_E,,_E,]2 [=F,,=F,] z .[=G,,=G,]2 .[A,,A,]2 | [=B,,=B,]4 z2 [A,,A,] z | %558
 [_A,,_A,]2 [G,,G,] z .[^F,,^F,]2 .[=F,,=F,]2 | .[=E,,=E,]2 .[B,,,B,,]2 .[E,,,E,,]2 .D,,2 | %560
 .[^C,,^C,]2 .[B,,,B,,]2 .[_B,,,_B,,] z [=G,,,=G,,]2 | [_A,,,_A,,]2 [G,,,G,,] z z2 [=B,,,=B,,] z | %562
 F,,2 [=A,,,=A,,] z z2 [B,,,B,,]2 | [C,,C,] z [B,,,B,,] z [C,,C,] z G,, z | %564
 A,,2 [G,,,G,,] z z2 G,,2 | F,, z .G,,,2 .^C,,2 .[G,,,G,,]2 | %566
 .D,,2 .[G,,,G,,]2 .^F,,2 .[G,,,G,,]2 | .C,2 .G,,,2 .G,,2 .G,,,2 | %568
 .E,,2 .[G,,,G,,]2 z2 .[G,,,G,,]2 | .D,,2 .[G,,,G,,]2 .^C,,2 .[G,,,G,,]2 | %570
 z2 .[G,,,G,,]2 .F,,2 .[G,,,G,,]2 | .E,,2 .[G,,,G,,]2 .C,,2 .[G,,,G,,]2 | z4 z ^F,,G,,=A,, | %573
 B,,2 E, z z E,,=F,,G,, | A,,2 F, z z4 | z4 z2 [F,,,F,,] z | B,,,C,, D,,2 z2 G,, z | %577
 A,,2 B,, z z2 D,,E,, | ^F,,=G,, A,,2 z2 B,, z | C,2 D, z z2 ^G,,A,, | B,,4 z2 B,,^C, | %581
 ^D, z ^C,D, E, z D,=E, | =F,4 z4 | z4 z2 C,_B,, | [=A,,=A,]_B,,[A,,A,]B,, [F,,F,]G,,[F,,F,]G,, | %585
 [^G,,^G,]A,,[G,,G,]A,, z2 =G,,F,, | E,,D,,^C,,=B,,, C,,D,,E,,C,, | D,,4 z [A,,,A,,]^C,,D,, | %588
 E,,4 z [A,,,A,,]D,,E,, |{/F,,} A,,4 z D,,E,,F,, | D,2 C,_B,, .[A,,A,]2 .[^G,,^G,]2 | %591
 _E,2 D,C, .[_B,,_B,]2 .[_A,,_A,]2 | [_B,,,_B,,]=A,,, B,,,2 [_A,,,_A,,]G,,, A,,,2 | %593
 [G,,,G,,]^F,,, G,,,2 z2 ^F,,,G,,, | [_A,,,_A,,]_B,,,A,,,B,,, C,,D,,C,,D,, | %595
 [=A,,,=A,,]=B,,,A,,,B,,, z =B,,,C,,D,, | z4 =A,,_B,,C,A,, | ^F,,4 z =B,,C,D, | %598
 _E,D,C,_B,, A,,=B,,^C,A,, | =F,,4 z =E,,F,,G,, | _A,,4 _B,,A,,G,,A,, | %601
 _B,,D,/ z/ D,4 [^G,,,^G,,]2 | [A,,,A,,] z .[=B,,,=B,,]2 .[=C,,=C,]2 .[F,,F,]2 | %603
{/F,} [A,,A,]6 [^F,,,^F,,] z | [G,,,G,,]4 [_B,,,_B,,]4 | [_E,,_E,]G,/ z/ G,4 [^C,,^C,]2 | %606
 [_E,,_E,]G,/ z/ G,4 [^C,,^C,]2 | .F, z .=E,2 .D,2 .[=C,=C]2 | %608
 .[_B,,_B,]2 .[A,,A,]2 .[G,,G,]2 .[F,,F,]2 | E,4 =F,4 | ^F,4 G,4 | [_A,D]4- [A,D][G,^C][A,D][G,C] | %612
 [_A,D][G,^C][A,D][G,C] [A,D][G,C][A,D][G,C] | D,4 ._B,2 .=A,.B, | .G,2 .^F,.G, .E,2 .^D,.E, | %615
 [_D,=F,]8 | _B,,8 | A,,4 z4 | [A,,,A,,] z D,, z G,,, z E,, z | %619
 [A,,,A,,] z ^D,,E,, [A,,,A,,] z D,,E,, | [A,,,A,,] z ^D,,E,, [A,,,A,,] z [G,,,G,,] z | %621
 F,,E,, F,,6 | _B,,A,, B,,6 | [G,,,G,,]3 [A,,,A,,] [_B,,,_B,,]3 [^C,,^C,] | %624
 [D,,D,]3 [^F,,^F,] G,,3 A,, | .[=E,,,=E,,].G,,,.D,, z .=B,,,.^D,,.A,, z | %626
 .=F,,._A,,._D, z .=A,,.^C,G, z | [_D,,_D,]8 | [_B,,,_B,,]6 z2 | z2 .E,2 .A,,2 .E,2 | %630
 .[A,,A,]2 .D,2 .G,,2 .E,2 | .A,,2 .E,2 .A,,2 .=E,,2 | %632
 .[A,,,A,,]2 .[E,,,E,,]2 .[A,,,C,,].B,,,.A,,,.G,,, | [F,,,F,,]6 ^C,, z | %634
 [_B,,,_B,,]4- [B,,,B,,]=C,,B,,,A,,, | G,,,^F,,,G,,,A,,, _B,,,A,,,B,,,C,, | %636
 _D,,C,,D,,^F,, G,,F,,G,,A,, | _B,,2 G,,=E,, A,,2 _G,,_E,, | _A,,2 F,,_D,, =G,,2 =E,,^C,, | _D,8 | %640
 _B,,6!fff! z2 | z2 E,, z A,,, z [E,,,E,,] z | A,,, z E,, z [A,,,A,,] z E,, z | %643
 A,,, z E,, z [A,,,A,,] z E,, z | z2 E,, z A,,, z [E,,,E,,] z | A,,, z E,, z [A,,,A,,] z E,, z | %646
 A,,, z E,, z [A,,,A,,] z E,, z | ^CDCD _B,=CB,C | z8 | z8 | %650
{/A,,,B,,,^C,,} D,,E,,D,,E,, _B,,,=C,,B,,,C,, | z8 | z8 | z8 | z8 | %655
 [A,,,A,,]B,,,^G,,,A,,, B,,,C,,A,,,B,,, | C,,D,,B,,,C,, D,,E,,C,,D,, | F,4 =B,,4 | =D,4 [_B,,F,]4 | %659
 ^C,,D,,=B,,,C,, F,,G,,E,,F,, | =B,,C,A,,B,, =D,4 | A,,4 z4 | A,,4 z4 | A,,4 z4 | A,,4 z4 | %665
 [_D,,_A,,_D,]6 z2 | [_B,,,F,,_B,,]6 z2 | [A,,,A,,][A,,,A,,] [A,,,A,,] z z4 |] %668
V:10
 x2 | x8 | x8 | x8 | x8 | x8 | x8 | x8 | x8 | x8 | x8 | x8 | x8 | x8 | x8 | x8 | x8 | x8 | x8 | %19
 x8 | x8 | x8 | x8 | x8 | x8 | x8 | x8 | x8 | x8 | x8 | x8 | x8 | x8 | x8 | x8 | x8 | x8 | x8 | %38
 x8 | x8 | x8 | x8 | x8 | x8 | x8 | x8 | x8 | x8 | x8 | x8 | x8 | x8 | x8 | x8 | x8 | x8 | x8 | %57
 x8 | x8 | x8 | [B,,^D,]8 | x8 | x8 | x8 | x8 | x8 | x8 | x8 | x8 | x8 | x8 | x8 | x8 | x8 | x8 | %75
 x8 | x8 | x8 | x6 D, z |[K:F] x8 | x8 | x8 | x8 | x8 | x8 | x8 | x8 | x8 | x8 | x8 | x8 | x8 | %92
 x8 | x8 | x8 | x8 | x8 | x8 | x8 | x8 | x8 | x8 | x8 | x8 | x8 | x8 | x8 | x8 | x8 |[M:2/4] x4 | %110
 x4 | x4 | x4 | x4 | x4 | x4 | x4 | x4 | x4 | x4 | x4 | x4 | x4 | x4 | x4 | x4 | x4 | x4 | x4 | %129
 x4 | x4 | x4 | x4 | x4 | x4 | x4 | x4 | x4 | x4 | x4 | x4 | x4 | x4 | x4 | x4 | x4 | x4 | x4 | %148
 x4 | x4 | x4 | x4 | x4 | x4 | x4 | x4 | x4 | x4 | x4 | x4 | x4 | x4 | x4 | x4 | x4 | x4 | x4 | %167
 x4 | x4 | x4 | x4 | x4 | x4 | x4 | x4 | x4 | x4 | x4 | x4 | x4 |[K:Cb][M:4/4] x8 | x8 | x8 | x8 | %184
 x8 | x8 | x8 | x8 | x8 | x8 | x8 | x14 | x8 | x8 | x8 | x8 | x8 | x8 |[K:C] x8 | x8 | x8 | x8 | %202
 x8 | x8 | x8 | x8 | x8 | x8 | x8 || x8 | x8 | x8 | x8 | x8 | x8 | x8 | x8 | x8 | x8 | x8 | x8 | %221
 x8 | x8 | x8 | x8 | x8 | x8 | x8 | x8 | x8 | x8 | x8 | x8 | x8 | x8 | x8 | x8 | x8 | x8 | x8 | %240
 x8 | x8 | x8 | x8 | x8 | x8 | x8 | x8 | x8 | x8 | x8 | x8 | x8 | x8 | x8 | x8 | x8 | x8 | x8 | %259
 x8 | x8 | x8 ||[M:2/4] x4 | x4 | x4 | x4 | x4 | x4 | x4 | x4 | x4 | x4 | x4 | x4 | x4 | x4 | x4 | %277
 x4 | x4 | x4 | x4 | x4 | x4 | x4 | x4 | x4 | x4 | x4 | x4 | x4 | z .A,, z .A,, | x4 | [A,,D,]4 | %293
 [A,,E,]4 | z .A,, .A,,,.A,, | .A,,, z x2 | x4 | x4 | x4 | x4 | x4 | x4 | x4 | x4 | x4 | x4 | x4 | %307
 x4 | x4 | x4 | x4 ||[M:4/4] x8 | x8 | x8 | x8 | x8 | x8 | x8 | x8 | x8 ||[K:Ab] x8 | x8 | x8 | %323
 x8 | x8 | x8 | x8 | x8 | x8 | x8 | x8 | x8 | x8 | x8 | x8 | x8 | x8 | x8 | x8 | x8 | x8 | x8 | %342
 x8 | x8 | x8 | x8 | x8 ||[K:D] x8 | x8 | x8 | x8 | x8 | x8 | x8 | x8 | x8 | x8 | x8 | x8 | x8 | %360
 x8 | x8 | x8 | x8 | x8 | x8 | x8 | x8 | x8 | x8 | x8 | x8 | x8 | x8 | x8 | x8 | x8 | x8 | x8 | %379
 x8 | x8 | x8 | x8 | x8 | x8 | x8 | x8 | x8 | x8 | x8 | x8 | x8 | x8 | x8 | x8 | x8 | x8 | x8 | %398
 x8 | x8 | x8 | x8 | x8 | x8 | x8 | x8 | x8 | x8 | x8 | x8 | x8 | x8 | x8 | x8 | x8 | x8 | x8 | %417
 x8 | x8 | x8 | x8 | x8 | x8 | x8 | x8 | x8 | x8 | x8 | x8 | E,,2 D,,2 C,,2 D,,2 | x8 | x8 | %432
 A,,8- | A,,8- | A,,8- | A,,8 | x8 | x8 | x8 | x8 | x8 | x8 | x8 | x8 | x8 | x8 | x8 | x8 | x8 | %449
 x8 | x8 | x8 | x8 | x8 | x8 | x8 | x8 | x8 | x8 | x8 | x8 | x8 | x8 | x8 | x8 | x8 | x8 | %467
 z2!p! G,,,/4G,,/4G,,,/4G,,/4G,,,/4G,,/4G,,,/4G,,/4 G,,,/4G,,/4G,,,/4G,,/4G,,,/4G,,/4G,,,/4G,,/4 z2 | %468
 x8 | x8 | x8 | x8 | x8 | x8 | x8 | x8 | x8 | x8 | x8 | x8 | x8 | x8 | x8 | x8 | x8 | x8 | x8 | %487
 x8 | x8 | x8 | x8 | x8 | x8 | x8 | x8 | x8 | x8 | x8 | x8 | x8 | x8 | x8 | x8 | x8 | x8 | x8 | %506
 x8 | x8 | x8 | x8 | x8 | x8 | x8 | x8 | x8 | x8 | x8 | x8 | x8 | x8 | x8 | x8 |[K:C] x8 | x8 | %524
 x8 | x8 | x8 | x8 | x8 | x8 | x8 | x8 | x8 | x8 | x8 | x8 | x8 | x8 | x8 | x8 | x8 | x8 | x8 | %543
 x8 | x8 | x8 | x8 | x8 | x8 | x8 | x8 | x8 | x8 | x8 | x8 | x8 | x8 | x8 | x8 | x8 | x8 | x8 | %562
 x8 | x8 | x8 | x8 | x8 | x8 | x8 | x8 | x8 | x8 | x8 | x8 | x8 | x8 | x8 | x8 | x8 | x8 | x8 | %581
 x8 | x8 | x8 | x8 | x8 | x8 | x8 | x8 | x8 | x8 | x8 | x8 | x8 | x8 | x8 | x8 | x8 | x8 | x8 | %600
 x8 | x8 | x8 | x8 | x8 | x8 | x8 | x8 | x8 | x8 | x8 | x8 | x8 | x8 | x8 | x8 | z4 z2 ^D,E, | %617
 z2 E,, z A,,, z E,, z | x8 | x8 | x8 | x8 | x8 | x8 | x8 | x8 | x8 | x8 | x8 | x8 | x8 | x8 | x8 | %633
 x8 | x8 | x8 | x8 | x8 | x8 | x8 | x8 | x8 | x8 | x8 | x8 | x8 | x8 | x8 | x8 | x8 | x8 | x8 | %652
 x8 | x8 | x8 | x8 | x8 | x8 | x8 | x8 | x8 | z2 .F,,2 .A,,,2 .F,,2 | .A,,,2 .E,,2 .A,,,2 .E,,2 | %663
 .A,,,2 .[D,,F,,]2 .A,,,2 .C,,2 | .A,,,2 .C,,2 .A,,,2 z2 | x8 | x8 | x8 |] %668

